; generated by PrusaSlicer 2.6.0-alpha5+win64 on 2023-06-18 at 18:33:38 UTC


;
;

;
;
; 

; external perimeters extrusion width = 0.45mm
; perimeters extrusion width = 0.45mm
; infill extrusion width = 0.45mm
; solid infill extrusion width = 0.45mm
; top infill extrusion width = 0.40mm
; support material extrusion width = 0.35mm
; first layer extrusion width = 0.42mm

M73 P0 R35
M201 X2500 Y2500 Z400 E5000 ; sets maximum accelerations, mm/sec^2
M203 X180 Y180 Z12 E80 ; sets maximum feedrates, mm / sec
M204 P2000 R1250 T2500 ; sets acceleration (P, T) and retract acceleration (R), mm/sec^2
M205 X8.00 Y8.00 Z2.00 E10.00 ; sets the jerk limits, mm/sec
M205 S0 T0 ; sets the minimum extruding and travel feed rate, mm/sec
M107
;TYPE:Custom
M862.3 P "MINI" ; printer model check
G90 ; use absolute coordinates
M83 ; extruder relative mode
M104 S170 ; set extruder temp for bed leveling
M140 S60 ; set bed temp
M109 R170 ; wait for bed leveling temp
M190 S60 ; wait for bed temp
M204 T1250 ; set travel acceleration
G28 ; home all without mesh bed level
G29 ; mesh bed leveling 
M204 T2500 ; restore travel acceleration
M104 S215 ; set extruder temp
G92 E0
G1 Y-2 X179 F2400
G1 Z3 F720
M109 S215 ; wait for extruder temp

; intro line
G1 X170 F1000
G1 Z0.2 F720
G1 X110 E8 F900
G1 X40 E10 F700
G92 E0

M221 S95 ; set flow
G21 ; set units to millimeters
G90 ; use absolute coordinates
M83 ; use relative distances for extrusion
M900 K0.2 ; Filament gcode LA 1.5
; ; Filament gcode LA 1.0
M107
;LAYER_CHANGE
;Z:0.2
;HEIGHT:0.2
;BEFORE_LAYER_CHANGE
G92 E0.0
;0.2


G1 E-3.2 F4200
G1 Z.2 F720
;AFTER_LAYER_CHANGE
;0.2
G1 Z.4
G1 X24.06 Y70.317 F9000
G1 Z.2 F720
G1 E3.2 F2400
M204 P600
;TYPE:Skirt/Brim
;WIDTH:0.42
G1 F1200
G1 X25 Y70.123 E.03009
G1 X155 Y70.123 E4.07606
G1 X156.307 Y70.515 E.04278
M73 P1 R35
G1 X157.183 Y71.56 E.04275
G1 X157.377 Y72.5 E.03009
G1 X157.377 Y107.5 E1.0974
G1 X156.985 Y108.807 E.04278
G1 X155.94 Y109.683 E.04275
G1 X155 Y109.877 E.03009
G1 X25 Y109.877 E4.07606
G1 X23.693 Y109.485 E.04278
M73 P1 R34
G1 X22.817 Y108.44 E.04275
G1 X22.623 Y107.5 E.03009
G1 X22.623 Y72.5 E1.0974
G1 X23.015 Y71.193 E.04278
G1 X24.014 Y70.355 E.04088
M204 P1000
; printing object Led11_usb_trials.stl id:0 copy 0
G1 E-2.24 F4200
;WIPE_START
G1 F7200
G1 X25 Y70.123 E-.56133
G1 X25.719 Y70.123 E-.39867
;WIPE_END
G1 Z.4 F720
G1 X89.514 Y84.985 F9000
G1 Z.2 F720
G1 E3.2 F2400
M204 P600
;TYPE:Perimeter
;WIDTH:0.419999
G1 F1200
G1 X89.159 Y84.286 E.02458
G1 X88.889 Y83.592 E.02335
G1 X88.683 Y82.836 E.02457
;WIDTH:0.464656
G1 X88.63 Y82.646 E.00692
;WIDTH:0.509312
G1 X88.576 Y82.456 E.00766
;WIDTH:0.553968
G1 X88.523 Y82.266 E.00838
;WIDTH:0.598624
G1 X88.469 Y82.076 E.00913
;WIDTH:0.62565
G1 X88.45 Y82.027 E.00255
G1 X88.406 Y82.173 E.00739
;WIDTH:0.58452
G1 X88.362 Y82.319 E.00687
;WIDTH:0.54339
G1 X88.319 Y82.465 E.00633
;WIDTH:0.50226
G1 X88.275 Y82.611 E.00582
;WIDTH:0.46113
G1 X88.231 Y82.757 E.0053
;WIDTH:0.419999
G1 X88.034 Y83.504 E.02422
G1 X87.761 Y84.225 E.02417
G1 X87.412 Y84.918 E.02433
G1 X86.993 Y85.568 E.02425
G1 X86.509 Y86.171 E.02424
G1 X85.965 Y86.72 E.02423
G1 X85.452 Y87.138 E.02075
G1 X84.906 Y87.51 E.02072
G1 X84.318 Y87.84 E.02114
G1 X83.693 Y88.119 E.02146
G1 X83.038 Y88.342 E.02169
G1 X82.532 Y88.477 E.01642
G1 X81.802 Y88.593 E.02318
G1 X81.03 Y88.637 E.02424
G1 X80.33 Y88.603 E.02197
G1 X79.639 Y88.504 E.02189
G1 X78.962 Y88.342 E.02183
G1 X78.307 Y88.119 E.02169
G1 X77.682 Y87.84 E.02146
G1 X77.094 Y87.51 E.02114
G1 X76.634 Y87.208 E.01725
G1 X76.079 Y86.759 E.02238
G1 X75.53 Y86.215 E.02423
G1 X75.042 Y85.616 E.02422
G1 X74.618 Y84.969 E.02425
G1 X74.251 Y84.246 E.02542
G1 X73.984 Y83.561 E.02305
G1 X73.781 Y82.815 E.02424
;WIDTH:0.43201
G1 X73.651 Y82.052 E.02504
G1 X73.626 Y81.279 E.02502
G1 X73.644 Y80.517 E.02466
G1 X73.765 Y79.764 E.02467
;WIDTH:0.419999
G1 X73.961 Y79.03 E.02382
G1 X74.224 Y78.313 E.02395
G1 X74.563 Y77.632 E.02385
G1 X74.969 Y76.991 E.02379
G1 X75.491 Y76.329 E.02643
G1 X76.035 Y75.78 E.02423
G1 X76.634 Y75.292 E.02422
G1 X77.281 Y74.868 E.02425
G1 X77.969 Y74.514 E.02426
G1 X78.689 Y74.234 E.02422
;WIDTH:0.467719
G1 X78.932 Y74.143 E.00917
;WIDTH:0.515438
G1 X79.174 Y74.053 E.01014
;WIDTH:0.563157
G1 X79.417 Y73.962 E.01122
G1 X80.189 Y73.846 E.03377
;WIDTH:0.543316
G1 X80.923 Y73.815 E.03057
;WIDTH:0.538373
G1 X81.742 Y73.841 E.03376
;WIDTH:0.568943
G1 X82.131 Y73.886 E.01713
;WIDTH:0.599512
G1 X82.521 Y73.93 E.01816
G1 X82.704 Y74.001 E.00908
;WIDTH:0.554634
G1 X82.888 Y74.073 E.00841
;WIDTH:0.509756
G1 X83.071 Y74.144 E.00762
;WIDTH:0.464878
G1 X83.254 Y74.216 E.0069
;WIDTH:0.419999
G1 X83.977 Y74.49 E.02424
G1 X84.668 Y74.838 E.02426
G1 X85.318 Y75.257 E.02425
G1 X85.921 Y75.741 E.02424
G1 X86.47 Y76.285 E.02423
G1 X86.808 Y76.699 E.01676
G1 X87.35 Y77.481 E.02983
G1 X87.715 Y78.178 E.02467
G1 X87.988 Y78.866 E.02321
G1 X88.212 Y79.66 E.02587
;WIDTH:0.461778
G1 X88.265 Y79.851 E.0069
;WIDTH:0.503557
G1 X88.318 Y80.042 E.00759
;WIDTH:0.545336
G1 X88.371 Y80.234 E.00832
;WIDTH:0.587115
G1 X88.424 Y80.425 E.00897
;WIDTH:0.622984
G1 X88.45 Y80.492 E.00347
G1 X88.493 Y80.342 E.00753
;WIDTH:0.582387
G1 X88.537 Y80.192 E.00701
;WIDTH:0.54179
G1 X88.581 Y80.043 E.00644
;WIDTH:0.501193
G1 X88.624 Y79.893 E.00595
;WIDTH:0.460596
G1 X88.668 Y79.743 E.00543
;WIDTH:0.419999
G1 X88.866 Y78.998 E.02417
G1 X89.133 Y78.273 E.02422
G1 X89.476 Y77.582 E.02419
G1 X89.888 Y76.932 E.02413
G1 X90.417 Y76.262 E.02677
G1 X90.968 Y75.706 E.02454
G1 X91.576 Y75.211 E.02458
G1 X92.231 Y74.781 E.02457
G1 X92.928 Y74.423 E.02457
G1 X93.658 Y74.139 E.02456
;WIDTH:0.455193
G1 X93.906 Y74.053 E.009
;WIDTH:0.490387
G1 X94.153 Y73.968 E.00972
;WIDTH:0.52558
G1 X94.401 Y73.882 E.01053
G1 X95.182 Y73.771 E.03166
;WIDTH:0.493282
G1 X95.924 Y73.74 E.02781
;WIDTH:0.488621
G1 X96.751 Y73.767 E.03067
;WIDTH:0.519461
G1 X97.144 Y73.812 E.01567
;WIDTH:0.550301
G1 X97.538 Y73.856 E.01673
G1 X97.787 Y73.945 E.01116
;WIDTH:0.506867
G1 X98.036 Y74.033 E.01019
;WIDTH:0.463433
G1 X98.285 Y74.121 E.00923
;WIDTH:0.419999
G1 X99.018 Y74.399 E.02458
G1 X99.718 Y74.752 E.02458
G1 X100.377 Y75.176 E.02457
G1 X100.988 Y75.667 E.02458
G1 X101.544 Y76.218 E.02454
G1 X101.992 Y76.767 E.02222
G1 X102.436 Y77.431 E.02504
G1 X102.807 Y78.137 E.02501
G1 X103.083 Y78.834 E.0235
G1 X103.31 Y79.639 E.02622
;WIDTH:0.423243
G1 X103.442 Y80.427 E.02527
;WIDTH:0.423818
G1 X103.45 Y80.486 E.00189
G1 X103.57 Y79.722 E.02449
;WIDTH:0.419999
G1 X103.771 Y78.967 E.0245
G1 X104.042 Y78.232 E.02456
G1 X104.39 Y77.532 E.02451
G1 X104.807 Y76.873 E.02445
G1 X105.342 Y76.196 E.02705
G1 X105.902 Y75.632 E.02492
G1 X106.517 Y75.13 E.02489
G1 X107.181 Y74.695 E.02489
G1 X107.887 Y74.331 E.02491
G1 X108.627 Y74.044 E.02489
;WIDTH:0.453461
G1 X109.006 Y73.923 E.01358
;WIDTH:0.486923
G1 X109.385 Y73.803 E.01468
G1 X110.176 Y73.697 E.02946
;WIDTH:0.443247
G1 X110.924 Y73.665 E.02492
;WIDTH:0.438868
G1 X111.76 Y73.692 E.02754
;WIDTH:0.46998
G1 X112.158 Y73.738 E.01423
;WIDTH:0.501092
G1 X112.555 Y73.783 E.01522
G1 X112.935 Y73.904 E.01519
;WIDTH:0.460546
G1 X113.316 Y74.026 E.01389
;WIDTH:0.419999
G1 X114.059 Y74.307 E.02491
G1 X114.768 Y74.665 E.0249
G1 X115.435 Y75.095 E.02488
G1 X116.054 Y75.592 E.02489
G1 X116.618 Y76.152 E.02492
G1 X117.073 Y76.708 E.02253
G1 X117.523 Y77.381 E.02538
G1 X117.898 Y78.097 E.02534
G1 X118.178 Y78.803 E.02381
G1 X118.408 Y79.619 E.02658
G1 X118.449 Y79.843 E.00714
G1 X118.676 Y78.935 E.02935
G1 X118.95 Y78.191 E.02486
G1 X119.303 Y77.482 E.02483
G1 X119.726 Y76.815 E.02476
G1 X120.268 Y76.129 E.02741
G1 X120.835 Y75.558 E.02523
G1 X121.458 Y75.049 E.02522
G1 X122.131 Y74.608 E.02523
G1 X122.847 Y74.24 E.02524
G1 X123.597 Y73.949 E.02522
;WIDTH:0.447184
G1 X124.369 Y73.724 E.02703
G1 X124.769 Y73.673 E.01355
;WIDTH:0.420199
G1 X125.169 Y73.622 E.01265
;WIDTH:0.393213
G1 X125.925 Y73.59 E.02204
;WIDTH:0.389116
G1 X126.77 Y73.618 E.02434
;WIDTH:0.420499
G1 X127.171 Y73.664 E.01267
;WIDTH:0.451881
G1 X127.572 Y73.709 E.01372
G1 X128.347 Y73.93 E.0274
;WIDTH:0.419999
G1 X129.099 Y74.216 E.02523
G1 X129.818 Y74.578 E.02524
G1 X130.494 Y75.014 E.02522
G1 X131.121 Y75.518 E.02522
G1 X131.692 Y76.085 E.02523
G1 X132.154 Y76.649 E.02286
G1 X132.61 Y77.331 E.02572
G1 X132.989 Y78.056 E.02565
G1 X133.289 Y78.816 E.02562
G1 X133.448 Y79.386 E.01855
G1 X133.585 Y78.873 E.01665
G1 X133.859 Y78.151 E.02421
G1 X134.216 Y77.432 E.02517
G1 X134.645 Y76.756 E.0251
G1 X135.194 Y76.062 E.02775
G1 X135.768 Y75.483 E.02556
G1 X136.399 Y74.968 E.02554
G1 X137.081 Y74.521 E.02557
G1 X137.806 Y74.149 E.02555
G1 X138.566 Y73.854 E.02556
G1 X139.354 Y73.646 E.02555
;WIDTH:0.406364
G1 X139.758 Y73.597 E.0123
;WIDTH:0.374772
G1 X140.163 Y73.547 E.01126
;WIDTH:0.343179
G1 X140.926 Y73.515 E.01907
;WIDTH:0.339363
G1 X141.779 Y73.543 E.02104
;WIDTH:0.371017
G1 X142.184 Y73.59 E.01112
;WIDTH:0.402671
G1 X142.589 Y73.636 E.01219
;WIDTH:0.419999
G1 X143.378 Y73.835 E.02551
G1 X144.14 Y74.125 E.02556
G1 X144.868 Y74.492 E.02556
G1 X145.553 Y74.933 E.02554
G1 X146.188 Y75.444 E.02556
G1 X146.767 Y76.018 E.02556
G1 X147.282 Y76.649 E.02554
G1 X147.729 Y77.331 E.02557
G1 X148.076 Y78.006 E.0238
G1 X148.396 Y78.816 E.02731
G1 X148.61 Y79.602 E.02554
G1 X148.741 Y80.407 E.02557
G1 X148.787 Y81.22 E.02553
G1 X148.747 Y82.034 E.02555
G1 X148.623 Y82.84 E.02557
G1 X148.415 Y83.628 E.02555
G1 X148.125 Y84.39 E.02556
G1 X147.758 Y85.118 E.02556
G1 X147.317 Y85.803 E.02554
G1 X146.806 Y86.438 E.02556
G1 X146.232 Y87.017 E.02556
G1 X145.72 Y87.436 E.02074
G1 X145.141 Y87.834 E.02203
G1 X144.518 Y88.187 E.02245
G1 X143.855 Y88.485 E.02279
G1 X143.382 Y88.664 E.01586
G1 X142.648 Y88.86 E.02382
G1 X141.843 Y88.991 E.02557
G1 X141.03 Y89.037 E.02553
G1 X140.289 Y89.001 E.02326
G1 X139.556 Y88.896 E.02322
G1 X138.838 Y88.723 E.02316
G1 X138.145 Y88.485 E.02297
G1 X137.482 Y88.187 E.02279
G1 X136.859 Y87.834 E.02245
G1 X136.399 Y87.532 E.01725
G1 X135.812 Y87.056 E.0237
G1 X135.233 Y86.482 E.02556
G1 X134.718 Y85.851 E.02554
G1 X134.271 Y85.169 E.02557
G1 X133.899 Y84.444 E.02555
G1 X133.604 Y83.684 E.02556
G1 X133.448 Y83.114 E.01853
G1 X133.313 Y83.621 E.01645
G1 X133.034 Y84.349 E.02444
G1 X132.672 Y85.068 E.02524
G1 X132.236 Y85.744 E.02522
G1 X131.732 Y86.371 E.02522
G1 X131.165 Y86.942 E.02523
G1 X130.653 Y87.361 E.02074
M73 P2 R34
G1 X130.083 Y87.753 E.02169
G1 X129.468 Y88.1 E.02214
G1 X128.815 Y88.393 E.02244
G1 X128.131 Y88.628 E.02268
G1 X127.627 Y88.762 E.01635
G1 X126.833 Y88.891 E.02522
G1 X126.03 Y88.937 E.02522
G1 X125.299 Y88.901 E.02295
G1 X124.576 Y88.798 E.0229
G1 X123.869 Y88.628 E.0228
G1 X123.185 Y88.393 E.02268
G1 X122.532 Y88.1 E.02244
G1 X121.917 Y87.753 E.02214
G1 X121.458 Y87.451 E.01723
G1 X120.879 Y86.982 E.02336
G1 X120.308 Y86.415 E.02523
G1 X119.799 Y85.792 E.02522
G1 X119.358 Y85.119 E.02523
G1 X118.99 Y84.403 E.02524
G1 X118.699 Y83.653 E.02522
G1 X118.488 Y82.877 E.02521
G1 X118.449 Y82.657 E.00701
G1 X118.224 Y83.566 E.02936
G1 X117.943 Y84.309 E.02491
G1 X117.585 Y85.018 E.0249
G1 X117.155 Y85.685 E.02488
G1 X116.658 Y86.304 E.02489
G1 X116.098 Y86.868 E.02492
G1 X115.586 Y87.287 E.02074
G1 X115.024 Y87.672 E.02136
G1 X114.418 Y88.013 E.0218
G1 X113.774 Y88.302 E.02213
G1 X113.1 Y88.532 E.02233
G1 X112.606 Y88.665 E.01604
G1 X111.822 Y88.792 E.0249
G1 X111.03 Y88.837 E.02487
G1 X110.31 Y88.802 E.0226
G1 X109.597 Y88.7 E.02258
G1 X108.9 Y88.532 E.02248
G1 X108.226 Y88.302 E.02233
G1 X107.582 Y88.013 E.02213
G1 X106.976 Y87.672 E.0218
G1 X106.517 Y87.37 E.01723
G1 X105.946 Y86.908 E.02303
G1 X105.382 Y86.348 E.02492
G1 X104.88 Y85.733 E.02489
G1 X104.445 Y85.069 E.02489
G1 X104.081 Y84.363 E.02491
G1 X103.794 Y83.623 E.02489
G1 X103.585 Y82.856 E.02493
;WIDTH:0.42531
G1 X103.455 Y82.073 E.02524
G1 X103.329 Y82.778 E.02277
;WIDTH:0.419999
G1 X103.129 Y83.535 E.02455
G1 X102.851 Y84.268 E.02458
G1 X102.498 Y84.968 E.02458
G1 X102.074 Y85.627 E.02457
G1 X101.583 Y86.238 E.02458
G1 X101.032 Y86.794 E.02454
G1 X100.519 Y87.213 E.02077
G1 X99.965 Y87.591 E.02103
G1 X99.368 Y87.927 E.02148
G1 X98.733 Y88.211 E.02181
G1 X98.069 Y88.437 E.02199
G1 X97.586 Y88.567 E.01568
G1 X96.812 Y88.693 E.02459
G1 X96.03 Y88.737 E.02456
G1 X95.32 Y88.703 E.02229
G1 X94.618 Y88.602 E.02224
G1 X93.931 Y88.437 E.02215
G1 X93.267 Y88.211 E.02199
G1 X92.632 Y87.927 E.02181
G1 X92.035 Y87.591 E.02148
G1 X91.576 Y87.289 E.01723
G1 X91.012 Y86.833 E.02274
G1 X90.456 Y86.282 E.02454
G1 X89.961 Y85.674 E.02458
G1 X89.543 Y85.037 E.02389
M204 P1000
G1 X89.851 Y84.82 F9000
M204 P600
;TYPE:External perimeter
G1 F1200
G1 X89.497 Y84.117 E.02468
G1 X89.241 Y83.457 E.0222
G1 X89.047 Y82.738 E.02335
G1 X88.93 Y82.003 E.02334
G1 X88.89 Y81.26 E.02333
G1 X88.927 Y80.527 E.02301
G1 X89.04 Y79.802 E.02301
G1 X89.23 Y79.098 E.02286
G1 X89.485 Y78.408 E.02306
G1 X89.812 Y77.754 E.02293
G1 X90.204 Y77.138 E.02289
G1 X90.71 Y76.5 E.02553
G1 X91.235 Y75.973 E.02332
G1 X91.813 Y75.504 E.02334
G1 X92.436 Y75.097 E.02333
G1 X93.099 Y74.759 E.02333
G1 X93.793 Y74.491 E.02333
G1 X94.512 Y74.297 E.02335
G1 X95.247 Y74.18 E.02334
G1 X95.945 Y74.142 E.02192
G1 X96.732 Y74.178 E.0247
G1 X97.469 Y74.293 E.02339
G1 X98.188 Y74.485 E.02333
G1 X98.883 Y74.751 E.02333
G1 X99.546 Y75.088 E.02332
G1 X100.171 Y75.492 E.02333
G1 X100.75 Y75.96 E.02334
G1 X101.277 Y76.485 E.02332
G1 X101.699 Y77.004 E.02097
G1 X102.12 Y77.636 E.02381
G1 X102.471 Y78.308 E.02377
G1 X102.731 Y78.97 E.0223
G1 X102.946 Y79.737 E.02498
G1 X103.068 Y80.487 E.02382
G1 X103.11 Y81.24 E.02365
G1 X103.072 Y81.983 E.02333
G1 X102.957 Y82.719 E.02336
G1 X102.765 Y83.438 E.02333
G1 X102.499 Y84.133 E.02333
G1 X102.162 Y84.796 E.02332
G1 X101.758 Y85.421 E.02333
G1 X101.29 Y86 E.02334
G1 X100.765 Y86.527 E.02332
G1 X100.282 Y86.92 E.01952
G1 X99.76 Y87.275 E.01979
G1 X99.196 Y87.591 E.02027
G1 X98.598 Y87.859 E.02055
G1 X97.971 Y88.073 E.02077
G1 X97.488 Y88.203 E.01568
G1 X96.753 Y88.32 E.02334
G1 X96.01 Y88.36 E.02333
G1 X95.34 Y88.326 E.02103
G1 X94.677 Y88.23 E.021
G1 X94.029 Y88.073 E.02091
G1 X93.402 Y87.859 E.02077
G1 X92.804 Y87.591 E.02055
G1 X92.24 Y87.275 E.02027
G1 X91.813 Y86.996 E.01599
G1 X91.25 Y86.54 E.02272
G1 X90.723 Y86.015 E.02332
G1 X90.254 Y85.437 E.02334
G1 X89.884 Y84.87 E.02123
M204 P1000
G1 X89.451 Y84.819 F9000
G1 E-2.24 F4200
;WIPE_START
G1 F7200
G1 X89.497 Y84.117 E-.46917
G1 X89.241 Y83.457 E-.3923
G1 X89.195 Y83.285 E-.09853
;WIPE_END
G1 Z.4 F720
G1 X91.964 Y93.299 F9000
G1 Z.2 F720
G1 E3.2 F2400
M204 P600
;TYPE:Perimeter
G1 F1200
G1 X92.553 Y92.906 E.0222
G1 X93.213 Y92.562 E.02334
G1 X93.884 Y92.301 E.02257
G1 X94.414 Y92.157 E.01722
G1 X95.188 Y92.015 E.02467
G1 X95.929 Y91.966 E.02328
G1 X96.676 Y91.997 E.02344
G1 X97.382 Y92.106 E.0224
G1 X98.069 Y92.286 E.02227
G1 X98.733 Y92.538 E.02227
G1 X99.368 Y92.858 E.0223
G1 X99.965 Y93.242 E.02226
G1 X100.424 Y93.61 E.01845
G1 X100.957 Y94.12 E.02313
G1 X101.425 Y94.678 E.02283
G1 X101.83 Y95.281 E.02278
G1 X102.167 Y95.922 E.02271
G1 X102.433 Y96.594 E.02266
G1 X102.627 Y97.289 E.02262
G1 X102.745 Y98.001 E.02263
G1 X102.787 Y98.72 E.02258
G1 X102.753 Y99.43 E.02229
G1 X102.644 Y100.132 E.02227
G1 X102.464 Y100.819 E.02227
G1 X102.212 Y101.483 E.02227
G1 X101.892 Y102.118 E.0223
G1 X101.508 Y102.715 E.02226
G1 X101.063 Y103.269 E.02228
G1 X100.563 Y103.774 E.02228
G1 X100.013 Y104.223 E.02226
G1 X99.419 Y104.613 E.02228
G1 X98.787 Y104.938 E.02228
G1 X98.125 Y105.195 E.02227
G1 X97.44 Y105.382 E.02226
G1 X96.739 Y105.496 E.02227
G1 X96.03 Y105.537 E.02227
G1 X95.32 Y105.503 E.02229
G1 X94.618 Y105.394 E.02227
G1 X93.931 Y105.214 E.02227
G1 X93.267 Y104.962 E.02227
G1 X92.632 Y104.642 E.0223
G1 X92.035 Y104.258 E.02226
G1 X91.481 Y103.813 E.02228
G1 X90.976 Y103.313 E.02228
G1 X90.527 Y102.763 E.02226
G1 X90.137 Y102.169 E.02228
G1 X89.812 Y101.537 E.02228
G1 X89.555 Y100.875 E.02227
G1 X89.368 Y100.19 E.02226
G1 X89.254 Y99.489 E.02227
G1 X89.213 Y98.78 E.02227
G1 X89.247 Y98.08 E.02197
G1 X89.352 Y97.389 E.02191
G1 X89.528 Y96.712 E.02193
G1 X89.772 Y96.057 E.02192
G1 X90.082 Y95.432 E.02187
G1 X90.454 Y94.844 E.02182
G1 X90.883 Y94.298 E.02177
