; generated by PrusaSlicer 2.6.0-alpha5+win64 on 2023-06-18 at 17:38:39 UTC


;
;

;
;
; 

; external perimeters extrusion width = 0.45mm
; perimeters extrusion width = 0.45mm
; infill extrusion width = 0.45mm
; solid infill extrusion width = 0.45mm
; top infill extrusion width = 0.40mm
; support material extrusion width = 0.35mm
; first layer extrusion width = 0.42mm

M73 P0 R25
M201 X2500 Y2500 Z400 E5000 ; sets maximum accelerations, mm/sec^2
M203 X180 Y180 Z12 E80 ; sets maximum feedrates, mm / sec
M204 P2000 R1250 T2500 ; sets acceleration (P, T) and retract acceleration (R), mm/sec^2
M205 X8.00 Y8.00 Z2.00 E10.00 ; sets the jerk limits, mm/sec
M205 S0 T0 ; sets the minimum extruding and travel feed rate, mm/sec
M107
;TYPE:Custom
M862.3 P "MINI" ; printer model check
G90 ; use absolute coordinates
M83 ; extruder relative mode
M104 S170 ; set extruder temp for bed leveling
M140 S60 ; set bed temp
M109 R170 ; wait for bed leveling temp
M190 S60 ; wait for bed temp
M204 T1250 ; set travel acceleration
G28 ; home all without mesh bed level
G29 ; mesh bed leveling 
M204 T2500 ; restore travel acceleration
M104 S215 ; set extruder temp
G92 E0
G1 Y-2 X179 F2400
G1 Z3 F720
M109 S215 ; wait for extruder temp

; intro line
G1 X170 F1000
G1 Z0.2 F720
G1 X110 E8 F900
G1 X40 E10 F700
G92 E0

M221 S95 ; set flow
G21 ; set units to millimeters
G90 ; use absolute coordinates
M83 ; use relative distances for extrusion
M900 K0.2 ; Filament gcode LA 1.5
; ; Filament gcode LA 1.0
M107
;LAYER_CHANGE
;Z:0.2
;HEIGHT:0.2
;BEFORE_LAYER_CHANGE
G92 E0.0
;0.2


G1 E-3.2 F4200
M73 P1 R25
G1 Z.2 F720
;AFTER_LAYER_CHANGE
;0.2
G1 Z.4
G1 X34.06 Y75.317 F9000
G1 Z.2 F720
G1 E3.2 F2400
M204 P600
;TYPE:Skirt/Brim
;WIDTH:0.42
G1 F1200
G1 X35 Y75.123 E.03009
G1 X145 Y75.123 E3.44897
G1 X146.307 Y75.515 E.04278
G1 X147.183 Y76.56 E.04275
G1 X147.377 Y77.5 E.03009
G1 X147.377 Y102.5 E.78386
G1 X146.985 Y103.807 E.04278
G1 X145.94 Y104.683 E.04275
G1 X145 Y104.877 E.03009
G1 X35 Y104.877 E3.44897
G1 X33.693 Y104.485 E.04278
G1 X32.817 Y103.44 E.04275
G1 X32.623 Y102.5 E.03009
G1 X32.623 Y77.5 E.78386
G1 X33.015 Y76.193 E.04278
G1 X34.014 Y75.355 E.04088
M204 P1000
; printing object Led8_usb_trials.stl id:0 copy 0
G1 E-2.24 F4200
;WIPE_START
G1 F7200
M73 P2 R25
G1 X35 Y75.123 E-.56133
G1 X35.719 Y75.123 E-.39867
;WIPE_END
G1 Z.4 F720
G1 X46.62 Y99.52 F9000
G1 Z.2 F720
G1 E3.2 F2400
M204 P600
;TYPE:Perimeter
;WIDTH:0.419999
G1 F1200
G1 X45.919 Y100.167 E.02991
G1 X45.041 Y100.688 E.03201
;WIDTH:0.454555
G1 X44.724 Y100.813 E.01166
;WIDTH:0.48911
G1 X44.406 Y100.939 E.01269
;WIDTH:0.523665
G1 X44.089 Y101.065 E.01364
;WIDTH:0.568922
G1 X43.965 Y101.114 E.00583
G1 X43.064 Y101.185 E.03953
G1 X42.035 Y101.114 E.04511
G1 X41.712 Y100.988 E.01516
;WIDTH:0.519281
G1 X41.39 Y100.862 E.0137
;WIDTH:0.46964
M73 P2 R24
G1 X41.067 Y100.736 E.0123
;WIDTH:0.419999
G1 X40.177 Y100.236 E.03201
G1 X39.41 Y99.562 E.03201
G1 X38.741 Y98.641 E.03569
G1 X38.373 Y97.815 E.02835
G1 X38.22 Y97.26 E.01805
G1 X38.116 Y96.308 E.03003
G1 X38.21 Y95.292 E.03199
G1 X38.356 Y94.734 E.01808
G1 X38.741 Y93.858 E.03
G1 X39.331 Y93.026 E.03198
G1 X40.066 Y92.347 E.03137
G1 X40.781 Y91.915 E.02619
G1 X41.175 Y91.729 E.01366
G1 X41.927 Y91.485 E.02479
G1 X42.503 Y91.411 E.01821
G1 X43.037 Y91.367 E.0168
G1 X43.54 Y91.393 E.01579
G1 X44.035 Y91.474 E.01573
G1 X44.933 Y91.764 E.02959
G1 X45.674 Y92.178 E.02661
G1 X45.94 Y92.352 E.00997
G1 X46.59 Y92.938 E.02744
G1 X47.164 Y93.707 E.03009
G1 X47.598 Y94.619 E.03167
G1 X47.801 Y95.445 E.02667
G1 X47.864 Y95.798 E.01124
G1 X47.864 Y96.702 E.02834
G1 X47.737 Y97.357 E.02092
G1 X47.613 Y97.846 E.01582
G1 X47.259 Y98.641 E.02729
G1 X46.664 Y99.479 E.03222
M204 P1000
G1 X46.439 Y99.149 F9000
M204 P600
;TYPE:External perimeter
G1 F1200
G1 X46.364 Y99.253 E.00402
G1 X45.666 Y99.886 E.02954
G1 X44.852 Y100.361 E.02955
G1 X43.957 Y100.657 E.02956
G1 X43.02 Y100.759 E.02955
G1 X42.082 Y100.665 E.02956
G1 X41.184 Y100.377 E.02957
G1 X40.365 Y99.91 E.02956
G1 X39.662 Y99.282 E.02956
G1 X39.085 Y98.488 E.03077
G1 X38.717 Y97.662 E.02835
G1 X38.585 Y97.164 E.01615
G1 X38.491 Y96.269 E.02822
G1 X38.585 Y95.332 E.02953
G1 X38.719 Y94.835 E.01614
G1 X39.085 Y94.012 E.02824
G1 X39.636 Y93.247 E.02956
G1 X40.319 Y92.627 E.02892
G1 X40.97 Y92.241 E.02373
G1 X41.292 Y92.087 E.01119
G1 X42.043 Y91.843 E.02476
G1 X42.543 Y91.786 E.01578
G1 X43.02 Y91.744 E.01501
G1 X43.554 Y91.777 E.01678
G1 X44.014 Y91.862 E.01467
G1 X44.816 Y92.123 E.02644
G1 X45.688 Y92.633 E.03167
G1 X46.338 Y93.218 E.02742
G1 X46.859 Y93.928 E.02761
G1 X47.253 Y94.772 E.0292
G1 X47.487 Y95.798 E.033
G1 X47.487 Y96.702 E.02834
G1 X47.269 Y97.693 E.03181
G1 X46.915 Y98.488 E.02729
G1 X46.474 Y99.101 E.02368
M204 P1000
G1 X46.495 Y99.263 F9000
G1 E-2.24 F4200
;WIPE_START
G1 F7200
G1 X46.364 Y99.253 E-.10398
G1 X45.666 Y99.886 E-.52218
G1 X45.146 Y100.19 E-.33384
;WIPE_END
G1 Z.4 F720
G1 X60.707 Y94.646 F9000
G1 Z.2 F720
G1 E3.2 F2400
M204 P600
;TYPE:Perimeter
G1 F1200
G1 X60.896 Y95.414 E.0248
G1 X60.963 Y95.788 E.01191
G1 X60.963 Y96.712 E.02897
G1 X60.722 Y97.846 E.03635
G1 X60.346 Y98.691 E.029
G1 X59.744 Y99.541 E.03266
G1 X58.978 Y100.248 E.03268
G1 X58.081 Y100.779 E.03268
;WIDTH:0.456082
G1 X57.593 Y100.963 E.01792
;WIDTH:0.492164
G1 X57.105 Y101.147 E.01948
;WIDTH:0.519881
G1 X56.984 Y101.187 E.00505
G1 X56.062 Y101.26 E.03668
G1 X55.016 Y101.187 E.04158
G1 X54.522 Y101.007 E.02085
;WIDTH:0.46994
G1 X54.027 Y100.827 E.0187
;WIDTH:0.419999
G1 X53.118 Y100.317 E.03268
G1 X52.336 Y99.629 E.03266
G1 X51.713 Y98.793 E.03269
G1 X51.278 Y97.846 E.03268
G1 X51.122 Y97.28 E.01841
G1 X51.016 Y96.191 E.03431
G1 X51.112 Y95.271 E.029
G1 X51.261 Y94.703 E.01841
G1 X51.63 Y93.863 E.02877
G1 X52.208 Y93.026 E.03189
G1 X52.743 Y92.504 E.02344
G1 X53.118 Y92.183 E.01548
G1 X53.922 Y91.719 E.02911
G1 X54.844 Y91.407 E.03052
G1 X55.487 Y91.313 E.02038
G1 X55.993 Y91.265 E.01594
G1 X56.519 Y91.29 E.01651
G1 X57.059 Y91.377 E.01715
G1 X58.081 Y91.721 E.03381
G1 X58.882 Y92.183 E.02899
G1 X59.656 Y92.863 E.0323
G1 X60.251 Y93.657 E.03111
G1 X60.693 Y94.587 E.03229
M204 P1000
G1 X60.292 Y94.621 F9000
M204 P600
;TYPE:External perimeter
G1 F1200
G1 X60.348 Y94.741 E.00415
G1 X60.586 Y95.788 E.03367
G1 X60.586 Y96.712 E.02897
G1 X60.378 Y97.693 E.03144
G1 X60.002 Y98.538 E.029
G1 X59.439 Y99.32 E.03021
G1 X58.725 Y99.967 E.03021
G1 X57.893 Y100.453 E.03021
G1 X56.978 Y100.754 E.0302
G1 X56.02 Y100.859 E.03022
G1 X55.061 Y100.763 E.03022
G1 X54.143 Y100.469 E.03022
G1 X53.307 Y99.991 E.03019
G1 X52.588 Y99.349 E.03022
G1 X52.018 Y98.572 E.03021
G1 X51.622 Y97.693 E.03023
G1 X51.487 Y97.185 E.01648
G1 X51.391 Y96.23 E.03009
G1 X51.487 Y95.311 E.02897
G1 X51.625 Y94.803 E.01651
G1 X51.974 Y94.017 E.02696
G1 X52.513 Y93.247 E.02947
G1 X53.307 Y92.509 E.03399
G1 X54.108 Y92.047 E.02899
G1 X54.96 Y91.766 E.02813
G1 X55.527 Y91.687 E.01795
G1 X56.019 Y91.644 E.01549
G1 X56.565 Y91.678 E.01715
G1 X57.04 Y91.766 E.01515
G1 X57.857 Y92.031 E.02693
G1 X58.758 Y92.562 E.03279
G1 X59.412 Y93.151 E.0276
G1 X59.946 Y93.878 E.02828
G1 X60.267 Y94.567 E.02383
M204 P1000
G1 X60.424 Y94.628 F9000
G1 E-2.24 F4200
;WIPE_START
G1 F7200
G1 X60.348 Y94.741 E-.10636
G1 X60.586 Y95.788 E-.59501
G1 X60.586 Y96.255 E-.25863
;WIPE_END
G1 Z.4 F720
G1 X63.922 Y96.243 F9000
G1 Z.2 F720
G1 E3.2 F2400
M204 P600
;TYPE:Perimeter
G1 F1200
G1 X64.032 Y95.16 E.03413
G1 X64.166 Y94.672 E.01587
G1 X64.543 Y93.813 E.02941
G1 X65.133 Y92.959 E.03255
G1 X65.664 Y92.441 E.02326
G1 X66.044 Y92.111 E.01578
G1 X66.69 Y91.738 E.02339
G1 X67.124 Y91.537 E.015
G1 X67.885 Y91.289 E.0251
G1 X68.471 Y91.214 E.01852
G1 X68.993 Y91.165 E.01644
G1 X69.498 Y91.188 E.01585
G1 X70.029 Y91.268 E.01684
G1 X71.123 Y91.63 E.03613
G1 X71.941 Y92.102 E.02961
G1 X72.726 Y92.793 E.03279
G1 X73.148 Y93.347 E.02184
G1 X73.433 Y93.759 E.01571
G1 X73.817 Y94.623 E.02965
G1 X74.04 Y95.612 E.03179
G1 X74.063 Y96.723 E.03484
G1 X73.969 Y97.222 E.01592
G1 X73.854 Y97.765 E.0174
G1 X73.433 Y98.741 E.03333
G1 X72.818 Y99.608 E.03333
G1 X72.036 Y100.329 E.03335
G1 X71.122 Y100.871 E.03332
;WIDTH:0.458931
G1 X70.121 Y101.229 E.03677
G1 X69.059 Y101.335 E.03692
;WIDTH:0.470839
G1 X67.998 Y101.261 E.03784
G1 X67.492 Y101.09 E.019
;WIDTH:0.445419
G1 X66.986 Y100.919 E.01788
;WIDTH:0.419999
G1 X66.059 Y100.398 E.03334
G1 X65.592 Y100.024 E.01876
G1 X64.921 Y99.285 E.0313
G1 X64.379 Y98.372 E.03329
G1 X64.102 Y97.559 E.02693
G1 X64.015 Y97.249 E.0101
G1 X63.916 Y96.303 E.02982
M204 P1000
G1 X64.294 Y96.302 F9000
M204 P600
;TYPE:External perimeter
G1 F1200
G1 X64.362 Y95.55 E.02367
G1 X64.476 Y94.965 E.01869
G1 X64.539 Y94.745 E.00718
G1 X64.887 Y93.967 E.02672
G1 X65.439 Y93.18 E.03014
G1 X66.248 Y92.429 E.03461
G1 X67.067 Y91.956 E.02965
G1 X67.934 Y91.67 E.02862
G1 X68.511 Y91.589 E.01827
G1 X69.018 Y91.544 E.01596
G1 X69.575 Y91.578 E.0175
G1 X70.066 Y91.67 E.01566
G1 X70.897 Y91.94 E.0274
G1 X71.594 Y92.338 E.02517
G1 X71.829 Y92.492 E.00881
G1 X72.486 Y93.084 E.02773
G1 X73.088 Y93.912 E.0321
G1 X73.473 Y94.776 E.02966
G1 X73.671 Y95.691 E.02935
G1 X73.683 Y96.753 E.0333
G1 X73.473 Y97.724 E.03115
G1 X73.088 Y98.588 E.02966
G1 X72.513 Y99.386 E.03084
G1 X71.784 Y100.048 E.03088
G1 X70.933 Y100.544 E.03088
G1 X69.998 Y100.852 E.03087
G1 X69.02 Y100.959 E.03085
G1 X68.04 Y100.86 E.03088
G1 X67.103 Y100.56 E.03085
G1 X66.248 Y100.071 E.03088
G1 X65.831 Y99.733 E.01683
G1 X65.201 Y99.034 E.0295
G1 X64.706 Y98.183 E.03087
G1 X64.39 Y97.21 E.03208
G1 X64.3 Y96.361 E.02677
M204 P1000
G1 X63.945 Y96.106 F9000
G1 E-2.24 F4200
;WIPE_START
G1 F7200
G1 X64.362 Y95.55 E-.45074
G1 X64.476 Y94.965 E-.33029
G1 X64.539 Y94.745 E-.12682
G1 X64.577 Y94.659 E-.05215
;WIPE_END
G1 Z.4 F720
G1 X83.845 Y91.41 F9000
G1 Z.2 F720
G1 E3.2 F2400
M204 P600
;TYPE:Perimeter
G1 F1200
G1 X84.083 Y91.5 E.00798
G1 X84.568 Y91.743 E.01701
G1 X85.025 Y92.037 E.01704
G1 X85.449 Y92.376 E.01702
G1 X85.835 Y92.757 E.01701
G1 X86.179 Y93.177 E.01702
G1 X86.477 Y93.631 E.01703
G1 X86.726 Y94.113 E.01701
G1 X86.912 Y94.588 E.01599
G1 X87.067 Y95.143 E.01807
G1 X87.155 Y95.678 E.017
G1 X87.186 Y96.208 E.01665
G1 X87.161 Y96.763 E.01742
G1 X87.079 Y97.299 E.017
G1 X86.942 Y97.825 E.01704
G1 X86.75 Y98.333 E.01703
G1 X86.507 Y98.818 E.01701
G1 X86.213 Y99.275 E.01704
G1 X85.874 Y99.699 E.01702
G1 X85.493 Y100.085 E.01701
G1 X85.073 Y100.429 E.01702
G1 X84.619 Y100.727 E.01703
G1 X84.137 Y100.976 E.01701
G1 X83.631 Y101.174 E.01704
;WIDTH:0.424518
G1 X83.108 Y101.319 E.01722
G1 X82.569 Y101.388 E.01724
;WIDTH:0.386324
G1 X82.028 Y101.411 E.01546
;WIDTH:0.38238
G1 X81.488 Y101.393 E.01525
;WIDTH:0.424396
G1 X80.95 Y101.332 E.01717
G1 X80.425 Y101.192 E.01723
;WIDTH:0.419999
G1 X79.917 Y101 E.01703
G1 X79.432 Y100.757 E.01701
G1 X78.975 Y100.463 E.01704
G1 X78.551 Y100.124 E.01702
G1 X78.165 Y99.743 E.01701
G1 X77.821 Y99.323 E.01702
G1 X77.523 Y98.869 E.01703
G1 X77.274 Y98.387 E.01701
G1 X77.076 Y97.881 E.01704
G1 X76.933 Y97.357 E.01703
G1 X76.845 Y96.822 E.017
G1 X76.813 Y96.28 E.01702
G1 X76.844 Y95.7 E.01821
G1 X77.044 Y94.738 E.03081
G1 X77.25 Y94.167 E.01903
G1 X77.493 Y93.682 E.01701
G1 X77.787 Y93.225 E.01704
G1 X78.126 Y92.801 E.01702
G1 X78.507 Y92.415 E.01701
G1 X78.927 Y92.071 E.01702
G1 X79.381 Y91.773 E.01703
G1 X79.863 Y91.524 E.01701
G1 X80.369 Y91.326 E.01704
G1 X80.893 Y91.183 E.01703
G1 X81.992 Y91.065 E.03466
G1 X82.509 Y91.089 E.01623
G1 X83.049 Y91.171 E.01713
G1 X83.575 Y91.308 E.01704
G1 X83.789 Y91.389 E.00717
M204 P1000
G1 X83.499 Y91.694 F9000
M204 P600
;TYPE:External perimeter
G1 F1200
G1 X83.712 Y91.761 E.007
G1 X84.25 Y92.005 E.01852
G1 X84.764 Y92.317 E.01885
G1 X85.211 Y92.669 E.01784
G1 X85.568 Y93.024 E.01579
G1 X85.886 Y93.415 E.0158
G1 X86.161 Y93.836 E.01577
G1 X86.39 Y94.285 E.0158
G1 X86.572 Y94.754 E.01577
G1 X86.703 Y95.24 E.01578
G1 X86.783 Y95.737 E.01578
G1 X86.81 Y96.24 E.01579
G1 X86.785 Y96.743 E.01579
G1 X86.707 Y97.24 E.01577
G1 X86.578 Y97.727 E.0158
G1 X86.398 Y98.197 E.01578
G1 X86.171 Y98.646 E.01577
G1 X85.897 Y99.069 E.0158
G1 X85.581 Y99.461 E.01579
G1 X85.226 Y99.818 E.01579
G1 X84.835 Y100.136 E.0158
G1 X84.414 Y100.411 E.01577
G1 X83.965 Y100.64 E.0158
G1 X83.496 Y100.822 E.01577
G1 X83.01 Y100.953 E.01578
G1 X82.513 Y101.033 E.01578
G1 X82.01 Y101.06 E.01579
G1 X81.507 Y101.035 E.01579
G1 X81.01 Y100.957 E.01577
G1 X80.523 Y100.828 E.0158
G1 X80.053 Y100.648 E.01578
G1 X79.604 Y100.421 E.01577
G1 X79.181 Y100.147 E.0158
G1 X78.789 Y99.831 E.01579
G1 X78.432 Y99.476 E.01579
G1 X78.114 Y99.085 E.0158
G1 X77.839 Y98.664 E.01577
G1 X77.61 Y98.215 E.0158
G1 X77.428 Y97.746 E.01577
G1 X77.297 Y97.26 E.01578
G1 X77.217 Y96.763 E.01578
G1 X77.19 Y96.26 E.01579
G1 X77.221 Y95.723 E.01687
G1 X77.413 Y94.817 E.02904
G1 X77.602 Y94.303 E.01717
G1 X77.829 Y93.854 E.01577
G1 X78.103 Y93.431 E.0158
G1 X78.419 Y93.039 E.01579
G1 X78.774 Y92.682 E.01579
G1 X79.165 Y92.364 E.0158
G1 X79.586 Y92.089 E.01577
G1 X80.035 Y91.86 E.0158
G1 X80.504 Y91.678 E.01577
G1 X80.99 Y91.547 E.01578
G1 X81.495 Y91.491 E.01593
G1 X82.017 Y91.444 E.01643
G1 X82.586 Y91.479 E.01787
G1 X83.155 Y91.586 E.01815
G1 X83.442 Y91.676 E.00943
M204 P1000
G1 X83.66 Y91.539 F9000
G1 E-2.24 F4200
;WIPE_START
G1 F7200
G1 X83.712 Y91.761 E-.15686
G1 X84.25 Y92.005 E-.32737
G1 X84.764 Y92.317 E-.33321
G1 X84.966 Y92.476 E-.14256
;WIPE_END
G1 Z.4 F720
G1 X89.761 Y95.645 F9000
G1 Z.2 F720
G1 E3.2 F2400
M204 P600
;TYPE:Perimeter
G1 F1200
G1 X89.981 Y94.588 E.03385
G1 X90.178 Y94.082 E.01703
G1 X90.407 Y93.632 E.01583
G1 X90.706 Y93.167 E.01733
G1 X91.051 Y92.735 E.01733
G1 X91.441 Y92.341 E.01738
G1 X91.869 Y91.99 E.01736
G1 X92.331 Y91.686 E.01734
G1 X92.823 Y91.432 E.01736
G1 X93.338 Y91.231 E.01733
G1 X93.862 Y91.088 E.01703
G1 X94.311 Y91.031 E.01419
G1 X94.906 Y90.968 E.01876
G1 X95.519 Y90.989 E.01923
G1 X96.07 Y91.073 E.01748
G1 X96.605 Y91.213 E.01734
G1 X97.123 Y91.408 E.01735
G1 X97.618 Y91.657 E.01737
G1 X98.083 Y91.956 E.01733
G1 X98.515 Y92.301 E.01733
G1 X98.909 Y92.691 E.01738
G1 X99.26 Y93.119 E.01736
G1 X99.564 Y93.581 E.01734
G1 X99.797 Y94.032 E.01592
G1 X100.019 Y94.588 E.01877
M73 P3 R24
G1 X100.165 Y95.122 E.01736
G1 X100.253 Y95.658 E.01703
G1 X100.287 Y96.22 E.01765
G1 X100.261 Y96.773 E.01736
G1 X100.177 Y97.32 E.01735
G1 X100.037 Y97.855 E.01734
G1 X99.842 Y98.373 E.01735
G1 X99.593 Y98.868 E.01737
G1 X99.294 Y99.333 E.01733
G1 X98.949 Y99.765 E.01733
G1 X98.559 Y100.159 E.01738
G1 X98.131 Y100.51 E.01736
G1 X97.669 Y100.814 E.01734
G1 X97.177 Y101.068 E.01736
G1 X96.662 Y101.269 E.01733
G1 X96.123 Y101.397 E.01737
;WIDTH:0.383095
G1 X95.576 Y101.463 E.01558
;WIDTH:0.336291
G1 X95.027 Y101.487 E.01341
;WIDTH:0.332619
G1 X94.479 Y101.467 E.01321
;WIDTH:0.375187
G1 X93.933 Y101.405 E.01518
;WIDTH:0.419999
G1 X93.394 Y101.287 E.0173
G1 X92.877 Y101.092 E.01732
G1 X92.382 Y100.843 E.01737
G1 X91.917 Y100.544 E.01733
G1 X91.485 Y100.199 E.01733
G1 X91.091 Y99.809 E.01738
G1 X90.74 Y99.381 E.01736
G1 X90.436 Y98.919 E.01734
G1 X90.172 Y98.398 E.01831
G1 X89.819 Y97.299 E.03619
G1 X89.741 Y96.791 E.01611
G1 X89.713 Y96.28 E.01605
G1 X89.749 Y95.704 E.0181
M204 P1000
G1 E-2.24 F4200
;WIPE_START
G1 F7200
G1 X89.981 Y94.588 E-.63167
G1 X90.178 Y94.082 E-.30091
G1 X90.2 Y94.038 E-.02742
;WIPE_END
G1 Z.4 F720
G1 X144.213 Y101.713 F9000
G1 Z.2 F720
G1 E3.2 F2400
M204 P600
G1 F1200
G1 X135.141 Y101.716 E.28445
;WIDTH:0.41452
G1 X135.19 Y101.706 E.00155
;WIDTH:0.419999
G1 X135.755 Y101.554 E.01835
G1 X136.299 Y101.342 E.01831
G1 X136.819 Y101.073 E.01836
G1 X137.308 Y100.752 E.01834
G1 X137.76 Y100.382 E.01831
G1 X138.171 Y99.966 E.01834
G1 X138.537 Y99.51 E.01833
G1 X138.853 Y99.018 E.01833
G1 X139.116 Y98.495 E.01835
G1 X139.322 Y97.948 E.01833
G1 X139.471 Y97.383 E.01832
G1 X139.559 Y96.805 E.01833
G1 X139.587 Y96.22 E.01836
G1 X139.553 Y95.637 E.01831
G1 X139.458 Y95.06 E.01833
G1 X139.304 Y94.495 E.01836
G1 X139.092 Y93.951 E.01831
G1 X138.823 Y93.431 E.01836
G1 X138.502 Y92.942 E.01834
G1 X138.132 Y92.49 E.01831
G1 X137.716 Y92.079 E.01834
G1 X137.26 Y91.713 E.01833
G1 X136.768 Y91.397 E.01833
