; generated by PrusaSlicer 2.6.0-alpha5+win64 on 2023-06-18 at 04:48:42 UTC


;
;

;
;
; 

; external perimeters extrusion width = 0.45mm
; perimeters extrusion width = 0.45mm
; infill extrusion width = 0.45mm
; solid infill extrusion width = 0.45mm
; top infill extrusion width = 0.40mm
; support material extrusion width = 0.35mm
; first layer extrusion width = 0.42mm

M73 P0 R23
M201 X2500 Y2500 Z400 E5000 ; sets maximum accelerations, mm/sec^2
M203 X180 Y180 Z12 E80 ; sets maximum feedrates, mm / sec
M204 P2000 R1250 T2500 ; sets acceleration (P, T) and retract acceleration (R), mm/sec^2
M205 X8.00 Y8.00 Z2.00 E10.00 ; sets the jerk limits, mm/sec
M205 S0 T0 ; sets the minimum extruding and travel feed rate, mm/sec
M107
;TYPE:Custom
M862.3 P "MINI" ; printer model check
G90 ; use absolute coordinates
M83 ; extruder relative mode
M104 S170 ; set extruder temp for bed leveling
M140 S60 ; set bed temp
M109 R170 ; wait for bed leveling temp
M190 S60 ; wait for bed temp
M204 T1250 ; set travel acceleration
G28 ; home all without mesh bed level
G29 ; mesh bed leveling 
M204 T2500 ; restore travel acceleration
M104 S215 ; set extruder temp
G92 E0
G1 Y-2 X179 F2400
G1 Z3 F720
M109 S215 ; wait for extruder temp

; intro line
G1 X170 F1000
G1 Z0.2 F720
M73 P0 R22
G1 X110 E8 F900
G1 X40 E10 F700
G92 E0

M221 S95 ; set flow
G21 ; set units to millimeters
G90 ; use absolute coordinates
M83 ; use relative distances for extrusion
M900 K0.2 ; Filament gcode LA 1.5
; ; Filament gcode LA 1.0
M107
;LAYER_CHANGE
;Z:0.2
;HEIGHT:0.2
;BEFORE_LAYER_CHANGE
G92 E0.0
;0.2


G1 E-3.2 F4200
M73 P1 R22
G1 Z.2 F720
;AFTER_LAYER_CHANGE
;0.2
G1 Z.4
G1 X46.56 Y75.317 F9000
G1 Z.2 F720
G1 E3.2 F2400
M204 P600
;TYPE:Skirt/Brim
;WIDTH:0.42
G1 F1200
G1 X47.5 Y75.123 E.03009
G1 X132.5 Y75.123 E2.66512
G1 X133.807 Y75.515 E.04278
G1 X134.683 Y76.56 E.04275
G1 X134.877 Y77.5 E.03009
G1 X134.877 Y102.5 E.78386
G1 X134.485 Y103.807 E.04278
G1 X133.44 Y104.683 E.04275
G1 X132.5 Y104.877 E.03009
G1 X47.5 Y104.877 E2.66512
G1 X46.193 Y104.485 E.04278
G1 X45.317 Y103.44 E.04275
G1 X45.123 Y102.5 E.03009
G1 X45.123 Y77.5 E.78386
G1 X45.515 Y76.193 E.04278
M73 P2 R22
G1 X46.514 Y75.355 E.04088
M204 P1000
; printing object Led_trials.stl id:0 copy 0
G1 E-2.24 F4200
;WIPE_START
G1 F7200
G1 X47.5 Y75.123 E-.56133
G1 X48.219 Y75.123 E-.39867
;WIPE_END
G1 Z.4 F720
G1 X117.24 Y80.389 F9000
G1 Z.2 F720
G1 E3.2 F2400
M204 P600
;TYPE:Perimeter
;WIDTH:0.419999
G1 F1200
G1 X117.878 Y81.26 E.03385
G1 X118.241 Y82.075 E.02797
G1 X118.442 Y82.887 E.02623
G1 X118.59 Y82.259 E.02023
G1 X119.001 Y81.285 E.03315
G1 X119.327 Y80.755 E.01951
G1 X119.663 Y80.335 E.01686
G1 X120.041 Y79.953 E.01685
G1 X120.457 Y79.612 E.01687
G1 X120.906 Y79.316 E.01686
G1 X121.384 Y79.07 E.01686
G1 X121.885 Y78.874 E.01687
;WIDTH:0.444825
G1 X122.4 Y78.72 E.01796
G1 X123.408 Y78.629 E.03382
;WIDTH:0.407131
G1 X124.003 Y78.645 E.01803
;WIDTH:0.449001
G1 X124.541 Y78.705 E.01828
G1 X125.059 Y78.856 E.01822
;WIDTH:0.419999
G1 X125.562 Y79.045 E.01685
G1 X126.043 Y79.287 E.01688
G1 X126.495 Y79.577 E.01684
G1 X126.915 Y79.913 E.01686
G1 X127.297 Y80.291 E.01685
G1 X127.638 Y80.707 E.01687
G1 X127.934 Y81.156 E.01686
G1 X128.18 Y81.634 E.01686
G1 X128.376 Y82.135 E.01687
G1 X128.518 Y82.653 E.01684
G1 X128.605 Y83.184 E.01687
G1 X128.637 Y83.72 E.01684
G1 X128.612 Y84.257 E.01686
G1 X128.531 Y84.789 E.01687
G1 X128.394 Y85.309 E.01686
G1 X128.205 Y85.812 E.01685
G1 X127.963 Y86.293 E.01688
G1 X127.673 Y86.745 E.01684
G1 X127.337 Y87.165 E.01686
G1 X126.959 Y87.547 E.01685
G1 X126.543 Y87.888 E.01687
G1 X126.094 Y88.184 E.01686
G1 X125.616 Y88.43 E.01686
G1 X125.115 Y88.626 E.01687
G1 X124.597 Y88.768 E.01684
G1 X124.066 Y88.855 E.01687
G1 X123.53 Y88.887 E.01684
G1 X122.993 Y88.862 E.01686
G1 X122.461 Y88.781 E.01687
G1 X121.941 Y88.644 E.01686
G1 X121.438 Y88.455 E.01685
G1 X120.957 Y88.213 E.01688
G1 X120.523 Y87.935 E.01616
G1 X120.085 Y87.587 E.01754
G1 X119.722 Y87.229 E.01599
G1 X119.362 Y86.793 E.01773
G1 X119.071 Y86.351 E.01659
G1 X118.82 Y85.866 E.01712
G1 X118.626 Y85.371 E.01667
G1 X118.476 Y84.81 E.01821
G1 X118.446 Y84.59 E.00696
G1 X118.306 Y85.249 E.02112
G1 X117.864 Y86.266 E.03477
G1 X117.248 Y87.116 E.03291
G1 X116.469 Y87.819 E.0329
G1 X115.494 Y88.373 E.03516
G1 X114.605 Y88.662 E.02931
G1 X113.559 Y88.784 E.03302
G1 X112.395 Y88.662 E.0367
G1 X111.506 Y88.373 E.02931
G1 X111.059 Y88.129 E.01597
G1 X110.589 Y87.858 E.01701
G1 X109.798 Y87.163 E.03301
G1 X109.17 Y86.318 E.03301
G1 X108.73 Y85.362 E.033
;WIDTH:0.451252
G1 X108.6 Y84.852 E.01787
;WIDTH:0.482504
G1 X108.469 Y84.342 E.01925
;WIDTH:0.498328
G1 X108.45 Y84.265 E.003
G1 X108.33 Y84.742 E.01863
;WIDTH:0.459164
G1 X108.211 Y85.219 E.01702
;WIDTH:0.419999
G1 X107.803 Y86.166 E.03233
G1 X107.206 Y87.008 E.03236
G1 X106.448 Y87.707 E.03233
G1 X105.453 Y88.282 E.03603
G1 X104.584 Y88.564 E.02865
G1 X103.559 Y88.684 E.03236
G1 X102.693 Y88.606 E.02726
G1 X102.416 Y88.564 E.00878
G1 X101.547 Y88.282 E.02865
G1 X100.648 Y87.777 E.03233
G1 X99.873 Y87.096 E.03235
G1 X99.256 Y86.268 E.03238
G1 X98.825 Y85.331 E.03234
G1 X98.671 Y84.77 E.01824
G1 X98.629 Y84.23 E.01698
;WIDTH:0.380418
G1 X98.597 Y83.694 E.01507
;WIDTH:0.393432
G1 X98.634 Y83.171 E.01528
;WIDTH:0.419999
G1 X98.678 Y82.691 E.01511
G1 X98.823 Y82.175 E.01681
G1 X99.174 Y81.385 E.0271
G1 X99.658 Y80.679 E.02684
G1 X99.873 Y80.404 E.01094
G1 X100.552 Y79.793 E.02864
G1 X101.439 Y79.266 E.03235
;WIDTH:0.464066
G1 X101.921 Y79.08 E.01809
;WIDTH:0.508132
G1 X102.403 Y78.894 E.01999
;WIDTH:0.544491
G1 X102.524 Y78.849 E.00538
G1 X103.403 Y78.779 E.03678
;WIDTH:0.506633
G1 X103.985 Y78.794 E.02245
;WIDTH:0.547422
G1 X104.507 Y78.852 E.02203
G1 X104.823 Y78.974 E.01421
;WIDTH:0.504948
G1 X105.138 Y79.096 E.01298
;WIDTH:0.462474
G1 X105.453 Y79.218 E.01178
;WIDTH:0.419999
G1 X106.352 Y79.723 E.03233
G1 X107.127 Y80.404 E.03235
G1 X107.707 Y81.182 E.03043
G1 X108.161 Y82.138 E.03318
;WIDTH:0.445054
G1 X108.292 Y82.649 E.01764
;WIDTH:0.470109
G1 X108.423 Y83.16 E.01874
;WIDTH:0.49377
G1 X108.45 Y83.283 E.00472
G1 X108.569 Y82.782 E.0193
;WIDTH:0.456885
G1 X108.687 Y82.281 E.01772
;WIDTH:0.419999
G1 X109.088 Y81.334 E.03224
G1 X109.607 Y80.58 E.0287
G1 X109.798 Y80.337 E.00969
G1 X110.493 Y79.712 E.02931
G1 X111.398 Y79.175 E.03299
;WIDTH:0.447882
G1 X111.893 Y78.993 E.01776
;WIDTH:0.475764
G1 X112.387 Y78.812 E.01894
G1 X113.406 Y78.704 E.03688
;WIDTH:0.456882
G1 X113.994 Y78.719 E.02025
;WIDTH:0.498212
G1 X114.524 Y78.779 E.02019
G1 X115.009 Y78.953 E.01951
;WIDTH:0.459106
G1 X115.494 Y79.127 E.01783
;WIDTH:0.419999
G1 X116.411 Y79.642 E.03298
G1 X117.204 Y80.341 E.03314
M204 P1000
G1 X116.921 Y80.593 F9000
M204 P600
;TYPE:External perimeter
G1 F1200
G1 X117.541 Y81.429 E.03263
G1 X117.897 Y82.228 E.02743
G1 X118.021 Y82.725 E.01606
;WIDTH:0.454926
G1 X118.075 Y82.894 E.00608
;WIDTH:0.489852
G1 X118.129 Y83.063 E.00659
;WIDTH:0.524778
G1 X118.183 Y83.232 E.00711
;WIDTH:0.533407
G1 X118.193 Y83.75 E.02113
;WIDTH:0.533518
G1 X118.187 Y84.268 E.02113
G1 X118.135 Y84.423 E.00667
;WIDTH:0.495679
G1 X118.083 Y84.579 E.00619
;WIDTH:0.457839
G1 X118.03 Y84.734 E.00565
;WIDTH:0.419999
G1 X117.925 Y85.209 E.01525
G1 X117.545 Y86.063 E.02931
G1 X116.951 Y86.881 E.0317
G1 X116.255 Y87.508 E.02937
G1 X115.377 Y88.014 E.03177
G1 X114.488 Y88.303 E.02931
G1 X113.52 Y88.409 E.03053
G1 X112.712 Y88.329 E.02546
G1 X112.512 Y88.303 E.00632
G1 X111.623 Y88.014 E.02931
G1 X110.777 Y87.531 E.03054
G1 X110.051 Y86.882 E.03053
G1 X109.475 Y86.097 E.03053
G1 X109.075 Y85.208 E.03057
G1 X108.868 Y84.257 E.03052
G1 X108.864 Y83.293 E.03023
G1 X109.056 Y82.36 E.02987
G1 X109.433 Y81.487 E.02982
G1 X110.051 Y80.618 E.03343
G1 X110.745 Y79.992 E.0293
G1 X111.587 Y79.502 E.03055
G1 X112.512 Y79.197 E.03054
G1 X113.447 Y79.092 E.0295
G1 X113.976 Y79.114 E.0166
G1 X114.488 Y79.197 E.01626
G1 X115.377 Y79.486 E.02931
G1 X116.223 Y79.969 E.03054
G1 X116.877 Y80.553 E.02749
M204 P1000
G1 X117.312 Y80.506 F9000
G1 E-2.24 F4200
;WIPE_START
G1 F7200
G1 X117.541 Y81.429 E-.60915
G1 X117.799 Y82.007 E-.35085
;WIPE_END
G1 Z.4 F720
G1 X107.677 Y81.992 F9000
G1 Z.2 F720
G1 E3.2 F2400
M204 P600
G1 F1200
G1 X107.816 Y82.291 E.01034
G1 X108.036 Y83.29 E.03207
G1 X108.036 Y84.207 E.02875
G1 X107.842 Y85.14 E.02988
G1 X107.458 Y86.013 E.0299
G1 X106.901 Y86.786 E.02987
G1 X106.196 Y87.427 E.02988
G1 X105.336 Y87.923 E.03113
G1 X104.467 Y88.206 E.02866
G1 X103.52 Y88.309 E.02987
G1 X102.533 Y88.206 E.03111
G1 X101.664 Y87.923 E.02866
G1 X100.836 Y87.45 E.0299
G1 X100.125 Y86.815 E.02989
G1 X99.561 Y86.047 E.02988
G1 X99.17 Y85.178 E.02988
G1 X99.036 Y84.675 E.01632
G1 X98.941 Y83.73 E.02978
G1 X99.036 Y82.821 E.02866
G1 X99.172 Y82.319 E.01631
G1 X99.518 Y81.539 E.02675
G1 X100.125 Y80.685 E.03285
G1 X100.804 Y80.073 E.02866
G1 X101.628 Y79.593 E.0299
G1 X102.533 Y79.294 E.02988
G1 X103.448 Y79.192 E.02887
G1 X103.965 Y79.214 E.01622
G1 X104.467 Y79.294 E.01594
G1 X105.336 Y79.577 E.02866
G1 X106.164 Y80.05 E.0299
G1 X106.875 Y80.685 E.02989
G1 X107.402 Y81.403 E.02793
G1 X107.652 Y81.938 E.01852
M204 P1000
G1 X108.006 Y82.009 F9000
G1 E-2.24 F4200
;WIPE_START
G1 F7200
G1 X107.816 Y82.291 E-.2157
G1 X108.036 Y83.29 E-.56688
G1 X108.036 Y83.61 E-.17742
;WIPE_END
G1 Z.4 F720
G1 X108.45 Y83.283 F9000
G1 Z.2 F720
G1 E3.2 F2400
M204 P600
;TYPE:Perimeter
;WIDTH:0.49377
G1 F1200
G1 X108.45 Y84.207 E.03464
;WIDTH:0.498328
G1 X108.45 Y84.265 E.0022
M204 P1000
G1 E-2.24 F4200
;WIPE_START
G1 F7200
G1 X108.45 Y84.207 E-.03214
G1 X108.45 Y83.283 E-.51205
;WIPE_END
G1 E-.41581 F4200
G1 Z.4 F720
G1 X100.428 Y99.008 F9000
G1 Z.2 F720
G1 E3.2 F2400
M204 P600
;WIDTH:0.419999
G1 F1200
G1 X100.063 Y98.525 E.01898
G1 X99.868 Y98.216 E.01146
G1 X99.586 Y97.584 E.0217
G1 X99.395 Y96.741 E.0271
G1 X99.386 Y95.892 E.02662
G1 X99.543 Y95.062 E.02649
G1 X99.868 Y94.284 E.02644
G1 X100.339 Y93.594 E.02619
G1 X100.788 Y93.151 E.01978
G1 X101.118 Y92.871 E.01357
G1 X101.764 Y92.497 E.0234
G1 X102.697 Y92.194 E.03076
G1 X103.412 Y92.117 E.02255
G1 X104.299 Y92.193 E.02791
G1 X105.128 Y92.449 E.0272
G1 X105.882 Y92.871 E.02709
G1 X106.612 Y93.528 E.03079
G1 X107.051 Y94.132 E.02341
G1 X107.4 Y94.885 E.02602
G1 X107.603 Y95.749 E.02783
G1 X107.618 Y96.623 E.02741
G1 X107.45 Y97.471 E.02711
G1 X107.11 Y98.266 E.02711
G1 X106.612 Y98.972 E.02709
G1 X105.978 Y99.56 E.02711
G1 X105.236 Y100.003 E.0271
G1 X104.417 Y100.282 E.02713
G1 X103.559 Y100.384 E.02709
G1 X102.698 Y100.306 E.02711
G1 X101.872 Y100.051 E.0271
G1 X101.118 Y99.629 E.02709
G1 X100.464 Y99.056 E.02726
M204 P1000
G1 X100.708 Y98.764 F9000
M204 P600
;TYPE:External perimeter
G1 F1200
G1 X100.212 Y98.063 E.02692
G1 X99.931 Y97.43 E.02171
G1 X99.763 Y96.663 E.02462
G1 X99.763 Y95.895 E.02408
G1 X99.911 Y95.141 E.02409
G1 X100.212 Y94.437 E.02401
G1 X100.645 Y93.816 E.02374
G1 X101.04 Y93.431 E.01729
G1 X101.306 Y93.197 E.01111
G1 X101.953 Y92.824 E.02342
G1 X102.737 Y92.569 E.02585
G1 X103.455 Y92.492 E.02264
G1 X104.261 Y92.569 E.02539
G1 X105.011 Y92.808 E.02468
G1 X105.694 Y93.197 E.02464
G1 X106.206 Y93.653 E.0215
G1 X106.709 Y94.303 E.02577
G1 X107.055 Y95.039 E.0255
G1 X107.234 Y95.827 E.02534
G1 X107.241 Y96.623 E.02496
G1 X107.081 Y97.393 E.02466
G1 X106.765 Y98.113 E.02465
G1 X106.307 Y98.751 E.02462
G1 X105.726 Y99.28 E.02464
G1 X105.047 Y99.676 E.02465
G1 X104.301 Y99.923 E.02464
G1 X103.52 Y100.009 E.02464
G1 X102.738 Y99.931 E.02464
G1 X101.989 Y99.692 E.02465
G1 X101.306 Y99.303 E.02464
G1 X100.749 Y98.807 E.02338
M204 P1000
G1 X100.316 Y98.844 F9000
G1 E-2.24 F4200
;WIPE_START
G1 F7200
G1 X100.212 Y98.063 E-.50848
G1 X99.931 Y97.43 E-.3838
G1 X99.905 Y97.311 E-.06772
;WIPE_END
G1 Z.4 F720
G1 X116.549 Y93.322 F9000
G1 Z.2 F720
G1 E3.2 F2400
M204 P600
;TYPE:Perimeter
G1 F1200
G1 X116.686 Y93.461 E.00612
G1 X117.137 Y94.082 E.02406
G1 X117.495 Y94.854 E.02668
G1 X117.703 Y95.738 E.02847
G1 X117.715 Y96.685 E.02969
G1 X117.545 Y97.502 E.02617
G1 X117.197 Y98.316 E.02776
G1 X116.686 Y99.039 E.02776
G1 X116.037 Y99.641 E.02776
G1 X115.276 Y100.094 E.02777
G1 X114.438 Y100.379 E.02775
G1 X113.559 Y100.484 E.02776
G1 X112.677 Y100.404 E.02777
G1 X111.832 Y100.142 E.02774
G1 X111.059 Y99.71 E.02776
G1 X110.393 Y99.127 E.02775
G1 X110.012 Y98.624 E.01978
G1 X109.781 Y98.266 E.01336
G1 X109.491 Y97.615 E.02235
G1 X109.295 Y96.751 E.02778
G1 X109.283 Y95.877 E.02741
G1 X109.448 Y95.029 E.02709
M73 P3 R22
G1 X109.781 Y94.234 E.02702
G1 X110.265 Y93.528 E.02684
G1 X110.721 Y93.077 E.02011
G1 X111.059 Y92.79 E.0139
G1 X111.724 Y92.406 E.02408
G1 X112.676 Y92.096 E.03139
G1 X113.411 Y92.017 E.02318
G1 X114.319 Y92.096 E.02858
G1 X115.168 Y92.358 E.02786
G1 X115.941 Y92.79 E.02776
G1 X116.505 Y93.282 E.02347
M204 P1000
G1 X116.291 Y93.6 F9000
M204 P600
;TYPE:External perimeter
G1 F1200
G1 X116.796 Y94.253 E.02588
G1 X117.151 Y95.008 E.02616
G1 X117.334 Y95.817 E.02601
G1 X117.339 Y96.651 E.02615
G1 X117.176 Y97.424 E.02477
G1 X116.852 Y98.163 E.0253
G1 X116.381 Y98.818 E.0253
G1 X115.784 Y99.361 E.0253
G1 X115.088 Y99.768 E.02528
G1 X114.322 Y100.021 E.02529
G1 X113.52 Y100.109 E.0253
G1 X112.717 Y100.029 E.0253
G1 X111.948 Y99.784 E.02531
G1 X111.248 Y99.384 E.02528
G1 X110.645 Y98.847 E.02532
G1 X110.126 Y98.113 E.02819
G1 X109.836 Y97.461 E.02237
G1 X109.664 Y96.673 E.02529
G1 X109.66 Y95.877 E.02496
G1 X109.817 Y95.107 E.02464
G1 X110.126 Y94.387 E.02457
G1 X110.57 Y93.749 E.02437
G1 X110.973 Y93.357 E.01763
G1 X111.248 Y93.116 E.01146
G1 X111.912 Y92.732 E.02405
G1 X112.717 Y92.471 E.02653
G1 X113.454 Y92.392 E.02324
G1 X114.282 Y92.471 E.02608
G1 X115.052 Y92.716 E.02534
G1 X115.752 Y93.116 E.02528
G1 X116.248 Y93.558 E.02083
M204 P1000
G1 X116.68 Y93.508 F9000
G1 E-2.24 F4200
;WIPE_START
G1 F7200
G1 X116.796 Y94.253 E-.49047
G1 X117.151 Y95.008 E-.46234
G1 X117.154 Y95.021 E-.00719
;WIPE_END
G1 Z.4 F720
G1 X121.746 Y92.293 F9000
G1 Z.2 F720
G1 E3.2 F2400
M204 P600
;TYPE:Perimeter
G1 F1200
G1 X122.489 Y92.04 E.02461
G1 X123.077 Y91.953 E.01864
G1 X123.527 Y91.917 E.01415
G1 X124.34 Y91.998 E.02562
G1 X124.966 Y92.188 E.02051
G1 X125.317 Y92.314 E.01169
G1 X126 Y92.709 E.02474
G1 X126.681 Y93.306 E.0284
G1 X127.224 Y94.032 E.02843
G1 X127.604 Y94.854 E.02839
G1 X127.804 Y95.738 E.02842
G1 X127.808 Y96.742 E.03148
G1 X127.64 Y97.533 E.02535
G1 X127.283 Y98.366 E.02842
G1 X126.761 Y99.106 E.02839
G1 X126.095 Y99.722 E.02844
G1 X125.317 Y100.186 E.0284
G1 X124.459 Y100.477 E.02841
G1 X123.559 Y100.584 E.02842
G1 X122.657 Y100.502 E.0284
G1 X121.791 Y100.234 E.02842
G1 X121 Y99.791 E.02843
G1 X120.319 Y99.194 E.0284
G1 X119.962 Y98.724 E.01851
G1 X119.695 Y98.316 E.01529
G1 X119.396 Y97.646 E.023
G1 X119.196 Y96.762 E.02842
G1 X119.183 Y95.866 E.0281
G1 X119.353 Y94.998 E.02773
G1 X119.695 Y94.184 E.02768
G1 X120.191 Y93.461 E.02749
G1 X120.654 Y93.003 E.02042
G1 X121.074 Y92.666 E.01688
G1 X121.689 Y92.312 E.02225
M204 P1000
G1 X121.86 Y92.648 F9000
M204 P600
;TYPE:External perimeter
G1 F1200
G1 X122.605 Y92.398 E.02464
G1 X123.49 Y92.292 E.02795
G1 X124.303 Y92.373 E.02562
G1 X124.85 Y92.546 E.01799
G1 X125.128 Y92.641 E.00921
G1 X125.811 Y93.035 E.02472
G1 X126.429 Y93.586 E.02596
G1 X126.919 Y94.253 E.02595
G1 X127.259 Y95.008 E.02596
G1 X127.436 Y95.817 E.02597
G1 X127.437 Y96.677 E.02696
G1 X127.272 Y97.455 E.02494
G1 X126.939 Y98.213 E.02596
G1 X126.455 Y98.885 E.02597
G1 X125.843 Y99.442 E.02595
G1 X125.128 Y99.859 E.02595
G1 X124.342 Y100.119 E.02596
G1 X123.52 Y100.209 E.02593
G1 X122.696 Y100.127 E.02596
G1 X121.908 Y99.875 E.02594
G1 X121.189 Y99.465 E.02595
G1 X120.571 Y98.914 E.02596
G1 X120.039 Y98.163 E.02886
G1 X119.741 Y97.492 E.02302
G1 X119.564 Y96.683 E.02597
G1 X119.56 Y95.866 E.02562
G1 X119.722 Y95.076 E.02529
G1 X120.039 Y94.337 E.02521
G1 X120.496 Y93.682 E.02504
G1 X120.907 Y93.284 E.01794
G1 X121.262 Y92.993 E.01439
G1 X121.808 Y92.678 E.01976
M204 P1000
G1 X121.904 Y92.251 F9000
G1 E-2.24 F4200
;WIPE_START
G1 F7200
G1 X122.605 Y92.398 E-.46813
G1 X123.486 Y92.292 E-.49187
;WIPE_END
G1 Z.4 F720
G1 X121.457 Y88.038 F9000
G1 Z.2 F720
G1 E3.2 F2400
