; generated by PrusaSlicer 2.6.0-alpha5+win64 on 2023-06-17 at 07:05:56 UTC


;
;

;
;
; 

; external perimeters extrusion width = 0.45mm
; perimeters extrusion width = 0.45mm
; infill extrusion width = 0.45mm
; solid infill extrusion width = 0.45mm
; top infill extrusion width = 0.40mm
; support material extrusion width = 0.35mm
; first layer extrusion width = 0.42mm

M73 P0 R39
M201 X2500 Y2500 Z400 E5000 ; sets maximum accelerations, mm/sec^2
M203 X180 Y180 Z12 E80 ; sets maximum feedrates, mm / sec
M204 P2000 R1250 T2500 ; sets acceleration (P, T) and retract acceleration (R), mm/sec^2
M205 X8.00 Y8.00 Z2.00 E10.00 ; sets the jerk limits, mm/sec
M205 S0 T0 ; sets the minimum extruding and travel feed rate, mm/sec
M107
;TYPE:Custom
M862.3 P "MINI" ; printer model check
G90 ; use absolute coordinates
M83 ; extruder relative mode
M104 S170 ; set extruder temp for bed leveling
M140 S60 ; set bed temp
M109 R170 ; wait for bed leveling temp
M190 S60 ; wait for bed temp
M204 T1250 ; set travel acceleration
G28 ; home all without mesh bed level
G29 ; mesh bed leveling 
M204 T2500 ; restore travel acceleration
M104 S215 ; set extruder temp
G92 E0
G1 Y-2 X179 F2400
G1 Z3 F720
M109 S215 ; wait for extruder temp

; intro line
G1 X170 F1000
G1 Z0.2 F720
G1 X110 E8 F900
G1 X40 E10 F700
G92 E0

M221 S95 ; set flow
G21 ; set units to millimeters
G90 ; use absolute coordinates
M83 ; use relative distances for extrusion
M900 K0.2 ; Filament gcode LA 1.5
; ; Filament gcode LA 1.0
M107
;LAYER_CHANGE
;Z:0.2
;HEIGHT:0.2
;BEFORE_LAYER_CHANGE
G92 E0.0
;0.2


G1 E-3.2 F4200
G1 Z.2 F720
;AFTER_LAYER_CHANGE
;0.2
G1 Z.4
G1 X58.015 Y58.693 F9000
G1 Z.2 F720
G1 E3.2 F2400
M204 P600
;TYPE:Skirt/Brim
;WIDTH:0.42
G1 F1200
G1 X59.06 Y57.817 E.04275
G1 X60 Y57.623 E.03009
G1 X120 Y57.623 E1.88126
G1 X121.307 Y58.015 E.04278
G1 X122.183 Y59.06 E.04275
G1 X122.377 Y60 E.03009
G1 X122.377 Y100 E1.25417
G1 X121.902 Y101.426 E.04713
G1 X106.902 Y121.426 E.78386
G1 X105.804 Y122.237 E.0428
G1 X105 Y122.377 E.02559
G1 X85 Y122.377 E.62709
G1 X83.515 Y121.856 E.04934
M73 P1 R39
G1 X58.515 Y101.856 E1.00383
G1 X57.739 Y100.734 E.04277
G1 X57.623 Y100 E.0233
G1 X57.623 Y60 E1.25417
G1 X57.997 Y58.75 E.04091
M204 P1000
; printing object Train_ctrl_holder.stl id:0 copy 0
G1 E-2.24 F4200
;WIPE_START
G1 F7200
G1 X59.06 Y57.817 E-.7838
G1 X59.371 Y57.753 E-.1762
;WIPE_END
G1 Z.4 F720
G1 X119.213 Y75.824 F9000
G1 Z.2 F720
G1 E3.2 F2400
M204 P600
;TYPE:Perimeter
;WIDTH:0.419999
G1 F1200
G1 X119.213 Y93.483 E.55368
G1 X118.854 Y92.707 E.02681
G1 X118.293 Y91.955 E.02942
G1 X117.588 Y91.337 E.0294
G1 X116.77 Y90.879 E.02939
G1 X115.873 Y90.601 E.02944
G1 X114.926 Y90.517 E.02981
G1 X114.01 Y90.626 E.02892
G1 X113.23 Y90.879 E.02571
G1 X112.316 Y91.407 E.0331
G1 X111.628 Y92.043 E.02938
G1 X111.087 Y92.809 E.0294
G1 X110.717 Y93.671 E.02941
G1 X110.534 Y94.59 E.02938
G1 X110.546 Y95.528 E.02941
G1 X110.753 Y96.442 E.02938
G1 X111.146 Y97.293 E.02939
G1 X111.707 Y98.045 E.02942
G1 X112.412 Y98.663 E.0294
G1 X113.122 Y99.073 E.02571
G1 X113.514 Y99.213 E.01305
G1 X104.779 Y99.213 E.27388
G1 X104.669 Y99.224 E.00347
G1 X104.423 Y99.339 E.00851
G1 X104.261 Y99.55 E.00834
G1 X104.213 Y99.779 E.00734
G1 X104.213 Y119.213 E.60934
G1 X97.486 Y119.213 E.21092
G1 X97.878 Y119.073 E.01305
G1 X98.684 Y118.593 E.02941
G1 X99.372 Y117.957 E.02938
G1 X99.913 Y117.191 E.0294
G1 X100.283 Y116.329 E.02941
G1 X100.466 Y115.41 E.02938
G1 X100.454 Y114.472 E.02941
G1 X100.247 Y113.558 E.02938
G1 X99.854 Y112.707 E.02939
G1 X99.293 Y111.955 E.02942
G1 X98.588 Y111.337 E.0294
G1 X97.77 Y110.879 E.02939
G1 X96.99 Y110.626 E.02571
G1 X95.926 Y110.517 E.03354
G1 X95.125 Y110.601 E.02525
G1 X94.122 Y110.927 E.03307
G1 X93.316 Y111.407 E.02941
G1 X92.628 Y112.043 E.02938
G1 X92.087 Y112.809 E.0294
G1 X91.717 Y113.671 E.02941
G1 X91.534 Y114.59 E.02938
G1 X91.534 Y115.41 E.02571
G1 X91.578 Y115.677 E.00848
G1 X91.753 Y116.442 E.02461
G1 X92.146 Y117.293 E.02939
G1 X92.707 Y118.045 E.02942
G1 X93.412 Y118.663 E.0294
G1 X94.122 Y119.073 E.02571
G1 X94.514 Y119.213 E.01305
G1 X85.787 Y119.213 E.27363
G1 X85.784 Y99.72 E.61119
G1 X85.667 Y99.43 E.0098
G1 X85.485 Y99.278 E.00743
G1 X85.221 Y99.213 E.00852
G1 X66.486 Y99.213 E.58742
G1 X66.878 Y99.073 E.01305
G1 X67.684 Y98.593 E.02941
G1 X68.372 Y97.957 E.02938
G1 X68.913 Y97.191 E.0294
G1 X69.283 Y96.329 E.02941
G1 X69.466 Y95.41 E.02938
G1 X69.454 Y94.472 E.02941
G1 X69.247 Y93.558 E.02938
G1 X68.854 Y92.707 E.02939
G1 X68.293 Y91.955 E.02942
G1 X67.588 Y91.337 E.0294
G1 X66.878 Y90.927 E.02571
G1 X66.404 Y90.76 E.01576
G1 X65.873 Y90.601 E.01738
G1 X64.926 Y90.517 E.02981
G1 X64.01 Y90.626 E.02892
G1 X63.122 Y90.927 E.0294
G1 X62.316 Y91.407 E.02941
G1 X61.628 Y92.043 E.02938
G1 X61.087 Y92.809 E.0294
G1 X60.787 Y93.483 E.02313
G1 X60.787 Y73.134 E.63803
;WIDTH:0.464168
G1 X60.809 Y72.861 E.00959
;WIDTH:0.508336
G1 X60.831 Y72.588 E.0106
;WIDTH:0.552504
G1 X60.853 Y72.316 E.01156
;WIDTH:0.562312
G1 X60.858 Y71.498 E.03533
G1 X60.835 Y71.287 E.00917
;WIDTH:0.514875
G1 X60.811 Y71.076 E.00833
;WIDTH:0.467437
G1 X60.787 Y70.866 E.00746
;WIDTH:0.419999
G1 X60.787 Y60.787 E.31602
G1 X119.213 Y60.787 E1.8319
G1 X119.213 Y64.609 E.11984
G1 X119.213 Y70.866 E.19618
;WIDTH:0.464168
G1 X119.191 Y71.139 E.00959
;WIDTH:0.508336
G1 X119.169 Y71.412 E.0106
;WIDTH:0.552504
G1 X119.147 Y71.684 E.01156
G1 X119.149 Y72.502 E.03466
;WIDTH:0.548022
G1 X119.17 Y72.713 E.00891
;WIDTH:0.505348
G1 X119.192 Y72.924 E.00816
;WIDTH:0.462674
G1 X119.213 Y73.134 E.00737
;WIDTH:0.419999
G1 X119.213 Y75.764 E.08246
M204 P1000
G1 E-2.24 F4200
;WIPE_START
G1 F7200
G1 X119.213 Y77.496 E-.96
;WIPE_END
G1 Z.4 F720
G1 X114.995 Y75.579 F9000
G1 Z.2 F720
G1 E3.2 F2400
M204 P600
G1 F1200
G1 X114.313 Y75.518 E.02147
G1 X113.596 Y75.298 E.02352
G1 X112.845 Y74.865 E.02718
G1 X112.373 Y74.44 E.01991
G1 X111.926 Y73.844 E.02336
G1 X111.61 Y73.165 E.02348
G1 X111.442 Y72.434 E.02352
G1 X111.429 Y71.685 E.02349
G1 X111.573 Y70.949 E.02351
G1 X111.866 Y70.259 E.0235
G1 X112.297 Y69.646 E.0235
G1 X112.845 Y69.135 E.02349
G1 X113.488 Y68.75 E.0235
G1 X114.197 Y68.506 E.02351
G1 X115.059 Y68.416 E.02717
G1 X115.687 Y68.482 E.0198
G1 X116.404 Y68.702 E.02352
G1 X117.059 Y69.065 E.02348
G1 X117.624 Y69.558 E.02351
G1 X118.075 Y70.157 E.02351
G1 X118.391 Y70.836 E.02348
;WIDTH:0.467431
G1 X118.47 Y71.075 E.00889
;WIDTH:0.514863
G1 X118.549 Y71.313 E.00984
;WIDTH:0.562295
G1 X118.628 Y71.552 E.01087
G1 X118.637 Y72.316 E.033
;WIDTH:0.552514
G1 X118.567 Y72.561 E.0108
;WIDTH:0.508343
G1 X118.497 Y72.806 E.00986
;WIDTH:0.464171
G1 X118.427 Y73.051 E.00893
;WIDTH:0.419999
G1 X118.134 Y73.741 E.0235
G1 X117.703 Y74.355 E.02352
G1 X117.155 Y74.865 E.02347
G1 X116.512 Y75.25 E.0235
G1 X115.803 Y75.494 E.02351
G1 X115.054 Y75.584 E.02365
M204 P1000
G1 X115.093 Y75.201 F9000
M204 P600
;TYPE:External perimeter
G1 F1200
G1 X115.02 Y75.209 E.0023
G1 X114.352 Y75.143 E.02105
G1 X113.713 Y74.94 E.02102
G1 X113.13 Y74.608 E.02104
G1 X112.628 Y74.162 E.02105
G1 X112.231 Y73.622 E.02101
G1 X111.954 Y73.011 E.02103
G1 X111.811 Y72.356 E.02102
G1 X111.806 Y71.685 E.02104
G1 X111.942 Y71.027 E.02107
G1 X112.211 Y70.412 E.02105
G1 X112.602 Y69.867 E.02103
G1 X113.098 Y69.415 E.02104
G1 X113.677 Y69.076 E.02104
G1 X114.313 Y68.865 E.02101
G1 X114.98 Y68.791 E.02104
G1 X115.648 Y68.857 E.02105
G1 X116.287 Y69.06 E.02102
G1 X116.87 Y69.392 E.02104
G1 X117.372 Y69.838 E.02105
G1 X117.77 Y70.378 E.02103
G1 X118.046 Y70.99 E.02105
G1 X118.19 Y71.645 E.02103
G1 X118.194 Y72.316 E.02104
G1 X118.058 Y72.973 E.02104
G1 X117.789 Y73.588 E.02105
G1 X117.398 Y74.133 E.02103
G1 X116.902 Y74.585 E.02104
G1 X116.323 Y74.924 E.02104
G1 X115.687 Y75.135 E.02101
G1 X115.153 Y75.194 E.01685
M204 P1000
G1 X115.066 Y75.27 F9000
G1 E-2.24 F4200
;WIPE_START
G1 F7200
G1 X115.02 Y75.209 E-.07417
G1 X114.352 Y75.143 E-.37199
G1 X113.713 Y74.94 E-.37155
G1 X113.49 Y74.813 E-.14229
;WIPE_END
G1 Z.4 F720
G1 X93.095 Y73.796 F9000
G1 Z.2 F720
G1 E3.2 F2400
M204 P600
;TYPE:Perimeter
G1 F1200
G1 X92.704 Y74.354 E.02136
G1 X92.155 Y74.865 E.02352
G1 X91.512 Y75.25 E.0235
G1 X90.687 Y75.518 E.0272
G1 X90.057 Y75.585 E.01986
G1 X89.313 Y75.518 E.02342
G1 X88.596 Y75.298 E.02352
G1 X88.122 Y75.039 E.01694
G1 X87.845 Y74.865 E.01026
G1 X87.373 Y74.44 E.01991
G1 X86.926 Y73.844 E.02336
G1 X86.61 Y73.165 E.02348
G1 X86.442 Y72.434 E.02352
G1 X86.429 Y71.685 E.02349
G1 X86.573 Y70.949 E.02351
G1 X86.866 Y70.259 E.0235
G1 X87.297 Y69.645 E.02352
G1 X87.845 Y69.135 E.02347
G1 X88.488 Y68.75 E.0235
G1 X89.197 Y68.506 E.02351
G1 X89.941 Y68.416 E.0235
G1 X90.687 Y68.482 E.02348
G1 X91.404 Y68.702 E.02352
G1 X92.059 Y69.065 E.02348
G1 X92.624 Y69.558 E.02351
G1 X93.075 Y70.157 E.02351
G1 X93.391 Y70.836 E.02348
G1 X93.558 Y71.567 E.02351
G1 X93.571 Y72.315 E.02346
G1 X93.427 Y73.051 E.02351
G1 X93.129 Y73.747 E.02374
M204 P1000
G1 X92.925 Y73.276 F9000
M204 P600
;TYPE:External perimeter
G1 F1200
G1 X92.789 Y73.587 E.01064
G1 X92.399 Y74.132 E.02101
G1 X91.902 Y74.585 E.02108
G1 X91.323 Y74.924 E.02104
G1 X90.687 Y75.135 E.02101
G1 X90.02 Y75.209 E.02104
G1 X89.352 Y75.143 E.02105
G1 X88.713 Y74.94 E.02102
G1 X88.13 Y74.608 E.02104
G1 X87.628 Y74.162 E.02105
G1 X87.231 Y73.622 E.02101
G1 X86.954 Y73.011 E.02103
G1 X86.811 Y72.356 E.02102
G1 X86.806 Y71.685 E.02104
G1 X86.942 Y71.027 E.02107
G1 X87.211 Y70.412 E.02105
G1 X87.602 Y69.867 E.02103
G1 X88.098 Y69.415 E.02104
G1 X88.677 Y69.076 E.02104
G1 X89.313 Y68.865 E.02101
G1 X89.98 Y68.791 E.02104
G1 X90.648 Y68.857 E.02105
G1 X91.287 Y69.06 E.02102
G1 X91.87 Y69.392 E.02104
G1 X92.372 Y69.838 E.02105
G1 X92.77 Y70.378 E.02103
G1 X93.046 Y70.99 E.02105
G1 X93.19 Y71.645 E.02103
G1 X93.194 Y72.315 E.02101
G1 X93.058 Y72.972 E.02104
G1 X92.949 Y73.222 E.00855
M204 P1000
G1 X93.139 Y73.54 F9000
G1 E-2.24 F4200
;WIPE_START
G1 F7200
G1 X92.789 Y73.587 E-.22085
G1 X92.399 Y74.132 E-.37138
G1 X91.909 Y74.579 E-.36777
;WIPE_END
G1 Z.4 F720
G1 X68.558 Y72.378 F9000
G1 Z.2 F720
M73 P2 R39
G1 E3.2 F2400
M204 P600
;TYPE:Perimeter
G1 F1200
G1 X68.427 Y73.051 E.0215
G1 X68.134 Y73.741 E.0235
G1 X67.704 Y74.354 E.02348
G1 X67.155 Y74.865 E.02352
G1 X66.512 Y75.25 E.0235
G1 X65.803 Y75.494 E.02351
G1 X65.059 Y75.584 E.0235
G1 X64.313 Y75.518 E.02348
G1 X63.596 Y75.298 E.02352
G1 X62.941 Y74.935 E.02348
G1 X62.376 Y74.442 E.02351
G1 X61.925 Y73.843 E.02351
G1 X61.609 Y73.164 E.02348
;WIDTH:0.462678
G1 X61.533 Y72.925 E.00875
;WIDTH:0.505357
G1 X61.456 Y72.686 E.00966
;WIDTH:0.548035
G1 X61.379 Y72.447 E.01055
;WIDTH:0.552514
G1 X61.363 Y71.684 E.03234
;WIDTH:0.562312
G1 X61.372 Y71.552 E.00571
G1 X61.439 Y71.351 E.00915
;WIDTH:0.514875
G1 X61.506 Y71.15 E.00831
;WIDTH:0.467437
G1 X61.573 Y70.949 E.00748
;WIDTH:0.419999
G1 X61.866 Y70.259 E.0235
G1 X62.297 Y69.645 E.02352
G1 X62.845 Y69.135 E.02347
G1 X63.488 Y68.75 E.0235
G1 X64.197 Y68.506 E.02351
G1 X64.941 Y68.416 E.0235
G1 X65.687 Y68.482 E.02348
G1 X66.404 Y68.702 E.02352
G1 X67.059 Y69.066 E.0235
G1 X67.624 Y69.558 E.02349
G1 X68.075 Y70.157 E.02351
G1 X68.391 Y70.836 E.02348
G1 X68.558 Y71.567 E.02351
G1 X68.57 Y72.319 E.02358
M204 P1000
G1 X68.139 Y72.581 F9000
M204 P600
;TYPE:External perimeter
G1 F1200
G1 X68.058 Y72.972 E.01252
G1 X67.789 Y73.588 E.02108
G1 X67.399 Y74.132 E.02099
G1 X66.902 Y74.585 E.02108
G1 X66.323 Y74.924 E.02104
G1 X65.687 Y75.135 E.02101
G1 X65.02 Y75.209 E.02104
G1 X64.352 Y75.143 E.02105
G1 X63.713 Y74.94 E.02102
G1 X63.13 Y74.608 E.02104
G1 X62.628 Y74.162 E.02105
G1 X62.23 Y73.622 E.02103
G1 X61.954 Y73.01 E.02105
G1 X61.81 Y72.355 E.02103
G1 X61.806 Y71.684 E.02104
G1 X61.942 Y71.027 E.02104
G1 X62.211 Y70.412 E.02105
G1 X62.602 Y69.867 E.02103
G1 X63.098 Y69.415 E.02104
G1 X63.677 Y69.076 E.02104
G1 X64.313 Y68.865 E.02101
G1 X64.98 Y68.791 E.02104
G1 X65.648 Y68.857 E.02105
G1 X66.287 Y69.06 E.02102
G1 X66.87 Y69.392 E.02104
G1 X67.372 Y69.838 E.02105
G1 X67.77 Y70.378 E.02103
G1 X68.046 Y70.99 E.02105
G1 X68.19 Y71.645 E.02103
G1 X68.194 Y72.315 E.02101
G1 X68.151 Y72.522 E.00663
M204 P1000
G1 X68.45 Y72.831 F9000
G1 E-2.24 F4200
;WIPE_START
G1 F7200
G1 X68.058 Y72.972 E-.25464
G1 X67.789 Y73.588 E-.3725
M73 P2 R38
G1 X67.439 Y74.076 E-.33286
;WIPE_END
G1 Z.4 F720
G1 X60.787 Y96.517 F9000
G1 Z.2 F720
G1 E3.2 F2400
M204 P600
;TYPE:Perimeter
G1 F1200
G1 X61.146 Y97.293 E.02681
G1 X61.628 Y97.957 E.02573
G1 X61.814 Y98.141 E.0082
G1 X62.412 Y98.663 E.02489
G1 X63.122 Y99.073 E.02571
G1 X63.514 Y99.213 E.01305
G1 X60.787 Y99.213 E.0855
G1 X60.787 Y96.577 E.08265
M204 P1000
G1 E-2.24 F4200
;WIPE_START
G1 F7200
G1 X61.146 Y97.293 E-.44387
G1 X61.628 Y97.957 E-.45469
G1 X61.707 Y98.035 E-.06144
;WIPE_END
G1 Z.4 F720
G1 X69.007 Y94.195 F9000
G1 Z.2 F720
G1 E3.2 F2400
M204 P600
;TYPE:External perimeter
G1 F1200
G1 X69.085 Y94.551 E.01143
G1 X69.089 Y95.41 E.02693
G1 X68.914 Y96.251 E.02693
G1 X68.569 Y97.038 E.02694
G1 X68.067 Y97.735 E.02693
G1 X67.431 Y98.313 E.02695
G1 X66.689 Y98.746 E.02694
;WIDTH:0.460589
G1 X66.288 Y98.9 E.01492
;WIDTH:0.501178
G1 X65.886 Y99.054 E.0164
G1 X65.022 Y99.135 E.03307
;WIDTH:0.515452
G1 X64.16 Y99.071 E.03396
G1 X63.753 Y98.917 E.0171
;WIDTH:0.467726
G1 X63.347 Y98.762 E.01535
;WIDTH:0.419999
G1 X62.601 Y98.336 E.02694
G1 X61.933 Y97.735 E.02817
G1 X61.451 Y97.072 E.0257
G1 X61.098 Y96.289 E.02693
;WIDTH:0.451386
G1 X60.991 Y95.872 E.01462
;WIDTH:0.482772
G1 X60.885 Y95.456 E.0157
G1 X60.88 Y94.59 E.03167
;WIDTH:0.48205
G1 X60.983 Y94.17 E.01579
;WIDTH:0.451025
G1 X61.086 Y93.749 E.01471
;WIDTH:0.419999
G1 X61.431 Y92.962 E.02694
G1 X61.933 Y92.265 E.02693
G1 X62.569 Y91.687 E.02695
G1 X63.311 Y91.254 E.02694
G1 X64.126 Y90.985 E.02691
G1 X64.966 Y90.891 E.0265
G1 X65.835 Y90.976 E.02738
G1 X66.653 Y91.238 E.02693
G1 X67.399 Y91.664 E.02694
G1 X68.041 Y92.236 E.02696
G1 X68.549 Y92.928 E.02692
G1 X68.902 Y93.711 E.02693
G1 X68.995 Y94.136 E.01364
M204 P1000
G1 X69.359 Y94.29 F9000
G1 E-2.24 F4200
;WIPE_START
G1 F7200
G1 X69.085 Y94.551 E-.23533
G1 X69.089 Y95.41 E-.47603
G1 X68.998 Y95.849 E-.24864
;WIPE_END
G1 Z.4 F720
G1 X88.178 Y90.907 F9000
G1 Z.2 F720
G1 E3.2 F2400
M204 P600
;TYPE:Perimeter
G1 F1200
G1 X89.01 Y90.626 E.02753
G1 X89.926 Y90.517 E.02892
G1 X90.707 Y90.584 E.02458
G1 X90.99 Y90.626 E.00897
G1 X91.77 Y90.879 E.02571
G1 X92.588 Y91.337 E.02939
G1 X93.293 Y91.955 E.0294
G1 X93.854 Y92.707 E.02942
G1 X94.247 Y93.558 E.02939
G1 X94.454 Y94.472 E.02938
G1 X94.466 Y95.41 E.02941
G1 X94.283 Y96.329 E.02938
G1 X93.913 Y97.191 E.02941
G1 X93.361 Y97.968 E.02988
G1 X92.7 Y98.578 E.0282
G1 X91.878 Y99.073 E.03009
G1 X90.875 Y99.399 E.03307
G1 X90.059 Y99.484 E.02572
G1 X89.125 Y99.399 E.02941
G1 X88.23 Y99.121 E.02938
G1 X87.316 Y98.593 E.0331
G1 X86.707 Y98.045 E.02569
G1 X86.177 Y97.337 E.02773
G1 X85.753 Y96.442 E.03105
G1 X85.546 Y95.528 E.02938
G1 X85.534 Y94.59 E.02941
G1 X85.717 Y93.671 E.02938
G1 X86.087 Y92.809 E.02941
G1 X86.628 Y92.043 E.0294
G1 X87.316 Y91.407 E.02938
G1 X88.125 Y90.935 E.02937
M204 P1000
G1 X88.33 Y91.247 F9000
M204 P600
;TYPE:External perimeter
G1 F1200
G1 X89.126 Y90.985 E.02628
G1 X89.966 Y90.891 E.0265
G1 X90.874 Y90.985 E.02862
G1 X91.653 Y91.238 E.02568
G1 X92.399 Y91.664 E.02694
G1 X93.041 Y92.236 E.02696
G1 X93.549 Y92.928 E.02692
G1 X93.902 Y93.711 E.02693
G1 X94.085 Y94.551 E.02696
G1 X94.089 Y95.41 E.02693
G1 X93.914 Y96.251 E.02693
G1 X93.569 Y97.038 E.02694
G1 X93.057 Y97.745 E.02737
G1 X92.448 Y98.298 E.02579
G1 X91.689 Y98.746 E.02763
G1 X90.835 Y99.024 E.02816
G1 X90.02 Y99.109 E.02569
G1 X89.165 Y99.024 E.02694
G1 X88.347 Y98.762 E.02693
G1 X87.569 Y98.313 E.02816
G1 X86.959 Y97.764 E.02573
G1 X86.483 Y97.115 E.02524
G1 X86.098 Y96.289 E.02857
G1 X85.915 Y95.449 E.02696
G1 X85.911 Y94.59 E.02693
G1 X86.086 Y93.749 E.02693
G1 X86.431 Y92.962 E.02694
G1 X86.933 Y92.265 E.02693
G1 X87.569 Y91.687 E.02695
G1 X88.277 Y91.276 E.02567
M204 P1000
G1 X88.37 Y90.849 F9000
G1 E-2.24 F4200
;WIPE_START
G1 F7200
G1 X89.126 Y90.985 E-.49736
G1 X89.956 Y90.892 E-.46264
;WIPE_END
G1 Z.4 F720
G1 X97.682 Y111.255 F9000
G1 Z.2 F720
G1 E3.2 F2400
M204 P600
