; generated by PrusaSlicer 2.6.0-alpha5+win64 on 2023-06-16 at 18:54:32 UTC


;
;

;
;
; 

; external perimeters extrusion width = 0.45mm
; perimeters extrusion width = 0.45mm
; infill extrusion width = 0.45mm
; solid infill extrusion width = 0.45mm
; top infill extrusion width = 0.40mm
; support material extrusion width = 0.35mm
; first layer extrusion width = 0.42mm

M73 P0 R74
M201 X2500 Y2500 Z400 E5000 ; sets maximum accelerations, mm/sec^2
M203 X180 Y180 Z12 E80 ; sets maximum feedrates, mm / sec
M204 P2000 R1250 T2500 ; sets acceleration (P, T) and retract acceleration (R), mm/sec^2
M205 X8.00 Y8.00 Z2.00 E10.00 ; sets the jerk limits, mm/sec
M205 S0 T0 ; sets the minimum extruding and travel feed rate, mm/sec
M107
;TYPE:Custom
M862.3 P "MINI" ; printer model check
G90 ; use absolute coordinates
M83 ; extruder relative mode
M104 S170 ; set extruder temp for bed leveling
M140 S60 ; set bed temp
M109 R170 ; wait for bed leveling temp
M190 S60 ; wait for bed temp
M204 T1250 ; set travel acceleration
G28 ; home all without mesh bed level
G29 ; mesh bed leveling 
M204 T2500 ; restore travel acceleration
M104 S215 ; set extruder temp
G92 E0
G1 Y-2 X179 F2400
G1 Z3 F720
M109 S215 ; wait for extruder temp

; intro line
M73 P0 R73
G1 X170 F1000
G1 Z0.2 F720
G1 X110 E8 F900
G1 X40 E10 F700
G92 E0

M221 S95 ; set flow
G21 ; set units to millimeters
G90 ; use absolute coordinates
M83 ; use relative distances for extrusion
M900 K0.2 ; Filament gcode LA 1.5
; ; Filament gcode LA 1.0
M107
;LAYER_CHANGE
;Z:0.2
;HEIGHT:0.2
;BEFORE_LAYER_CHANGE
G92 E0.0
;0.2


G1 E-3.2 F4200
G1 Z.2 F720
;AFTER_LAYER_CHANGE
;0.2
G1 Z.4
G1 X43.015 Y43.693 F9000
G1 Z.2 F720
G1 E3.2 F2400
M204 P600
;TYPE:Skirt/Brim
;WIDTH:0.42
G1 F1200
G1 X44.06 Y42.817 E.04275
G1 X45 Y42.623 E.03009
G1 X135 Y42.623 E2.82189
G1 X136.307 Y43.015 E.04278
G1 X137.183 Y44.06 E.04275
G1 X137.377 Y45 E.03009
G1 X137.377 Y135 E2.82189
G1 X136.985 Y136.307 E.04278
G1 X135.94 Y137.183 E.04275
G1 X135 Y137.377 E.03009
G1 X45 Y137.377 E2.82189
G1 X43.693 Y136.985 E.04278
G1 X42.817 Y135.94 E.04275
G1 X42.623 Y135 E.03009
G1 X42.623 Y45 E2.82189
G1 X42.997 Y43.75 E.04091
M204 P1000
; printing object Train_ctrl_cover_June_23.stl id:0 copy 0
G1 E-2.24 F4200
;WIPE_START
G1 F7200
G1 X44.06 Y42.817 E-.7838
G1 X44.371 Y42.753 E-.1762
;WIPE_END
G1 Z.4 F720
G1 X134.213 Y134.213 F9000
G1 Z.2 F720
G1 E3.2 F2400
M204 P600
;TYPE:Perimeter
;WIDTH:0.419999
G1 F1200
G1 X45.787 Y134.213 E2.77253
G1 X45.787 Y45.787 E2.77253
G1 X134.213 Y45.787 E2.77253
M73 P1 R73
G1 X134.213 Y134.153 E2.77065
M204 P1000
G1 X134.59 Y134.59 F9000
M204 P600
;TYPE:External perimeter
G1 F1200
G1 X45.41 Y134.59 E2.79617
G1 X45.41 Y45.41 E2.79617
G1 X134.59 Y45.41 E2.79617
M73 P1 R72
G1 X134.59 Y134.53 E2.79429
M204 P1000
G1 X134.204 Y134.486 F9000
G1 E-2.24 F4200
;WIPE_START
G1 F7200
G1 X132.858 Y134.531 E-.96
;WIPE_END
G1 Z.4 F720
G1 X130.684 Y50.802 F9000
G1 Z.2 F720
G1 E3.2 F2400
M204 P600
;TYPE:Perimeter
G1 F1200
G1 X130.224 Y50.659 E.0151
G1 X129.791 Y50.383 E.0161
G1 X129.481 Y50.03 E.01473
G1 X129.3 Y49.692 E.01202
G1 X129.194 Y49.324 E.01201
G1 X129.166 Y48.941 E.01204
G1 X129.218 Y48.561 E.01203
G1 X129.348 Y48.2 E.01203
G1 X129.578 Y47.846 E.01324
G1 X130.023 Y47.446 E.01876
G1 X130.406 Y47.268 E.01324
G1 X130.956 Y47.163 E.01756
G1 X131.377 Y47.204 E.01326
G1 X131.776 Y47.341 E.01323
G1 X132.266 Y47.671 E.01852
G1 X132.519 Y47.97 E.01228
G1 X132.7 Y48.308 E.01202
G1 X132.806 Y48.676 E.01201
G1 X132.837 Y49 E.01021
G1 X132.782 Y49.439 E.01387
G1 X132.652 Y49.8 E.01203
G1 X132.422 Y50.154 E.01324
G1 X131.977 Y50.554 E.01876
G1 X131.594 Y50.732 E.01324
G1 X131.005 Y50.835 E.01875
G1 X130.744 Y50.808 E.00823
M204 P1000
G1 X130.727 Y50.434 F9000
M204 P600
;TYPE:External perimeter
G1 F1200
G1 X130.424 Y50.339 E.00996
G1 X130.009 Y50.071 E.01549
G1 X129.808 Y49.842 E.00955
G1 X129.659 Y49.576 E.00956
G1 X129.569 Y49.284 E.00958
G1 X129.541 Y48.98 E.00957
G1 X129.577 Y48.677 E.00957
G1 X129.675 Y48.388 E.00957
G1 X129.84 Y48.117 E.00995
G1 X130.2 Y47.779 E.01548
G1 X130.484 Y47.637 E.00996
G1 X130.969 Y47.541 E.0155
G1 X131.273 Y47.566 E.00956
G1 X131.576 Y47.661 E.00996
G1 X131.991 Y47.929 E.01549
G1 X132.192 Y48.158 E.00955
G1 X132.341 Y48.424 E.00956
G1 X132.431 Y48.716 E.00958
G1 X132.46 Y49 E.00895
G1 X132.423 Y49.323 E.01019
G1 X132.325 Y49.612 E.00957
G1 X132.16 Y49.883 E.00995
G1 X131.8 Y50.221 E.01548
G1 X131.516 Y50.363 E.00996
G1 X131.031 Y50.459 E.0155
G1 X130.787 Y50.439 E.00768
M204 P1000
G1 X130.524 Y50.677 F9000
G1 E-2.24 F4200
;WIPE_START
G1 F7200
G1 X130.424 Y50.339 E-.20866
G1 X130.009 Y50.071 E-.27377
G1 X129.808 Y49.842 E-.16885
G1 X129.659 Y49.576 E-.16896
G1 X129.585 Y49.335 E-.13976
;WIPE_END
G1 Z.4 F720
G1 X114.453 Y75.475 F9000
G1 Z.2 F720
G1 E3.2 F2400
M204 P600
;TYPE:Perimeter
G1 F1200
G1 X114.283 Y76.329 E.0273
G1 X113.913 Y77.191 E.02941
G1 X113.372 Y77.957 E.0294
G1 X112.684 Y78.593 E.02938
G1 X111.77 Y79.121 E.0331
G1 X110.99 Y79.374 E.02571
G1 X110.059 Y79.484 E.02939
G1 X109.295 Y79.416 E.02405
G1 X109.01 Y79.374 E.00903
G1 X108.23 Y79.121 E.02571
G1 X107.412 Y78.663 E.02939
G1 X106.628 Y77.957 E.03308
G1 X106.146 Y77.293 E.02573
G1 X105.754 Y76.442 E.02938
G1 X105.546 Y75.528 E.02939
G1 X105.534 Y74.59 E.02941
G1 X105.717 Y73.671 E.02938
G1 X106.071 Y72.856 E.02786
G1 X106.629 Y72.042 E.03094
G1 X107.316 Y71.407 E.02933
G1 X108.122 Y70.927 E.02941
G1 X109.01 Y70.626 E.0294
G1 X109.91 Y70.517 E.02843
G1 X110.871 Y70.601 E.03025
G1 X111.77 Y70.879 E.0295
G1 X112.588 Y71.337 E.02939
G1 X113.293 Y71.955 E.0294
G1 X113.854 Y72.707 E.02942
G1 X114.247 Y73.558 E.02939
G1 X114.454 Y74.472 E.02938
G1 X114.465 Y75.416 E.0296
M204 P1000
G1 X114.073 Y75.485 F9000
M204 P600
;TYPE:External perimeter
G1 F1200
G1 X113.914 Y76.251 E.02453
G1 X113.569 Y77.038 E.02694
G1 X113.067 Y77.735 E.02693
G1 X112.431 Y78.313 E.02695
G1 X111.653 Y78.762 E.02816
G1 X110.874 Y79.015 E.02568
G1 X110.02 Y79.109 E.02694
G1 X109.334 Y79.041 E.02161
G1 X109.126 Y79.015 E.00657
G1 X108.347 Y78.762 E.02568
G1 X107.601 Y78.336 E.02694
G1 X106.933 Y77.735 E.02817
G1 X106.451 Y77.072 E.0257
G1 X106.098 Y76.289 E.02693
G1 X105.915 Y75.449 E.02696
G1 X105.911 Y74.59 E.02693
G1 X106.086 Y73.749 E.02693
G1 X106.414 Y73.012 E.02529
G1 X106.933 Y72.265 E.02852
G1 X107.569 Y71.687 E.02695
G1 X108.311 Y71.254 E.02694
G1 X109.126 Y70.985 E.02691
G1 X109.95 Y70.892 E.026
G1 X110.834 Y70.976 E.02784
G1 X111.653 Y71.238 E.02696
G1 X112.399 Y71.664 E.02694
G1 X113.041 Y72.236 E.02696
G1 X113.549 Y72.928 E.02692
G1 X113.902 Y73.711 E.02693
G1 X114.085 Y74.551 E.02696
G1 X114.085 Y75.426 E.02743
M204 P1000
G1 X114.397 Y75.72 F9000
G1 E-2.24 F4200
;WIPE_START
G1 F7200
G1 X113.914 Y76.251 E-.46691
G1 X113.569 Y77.038 E-.47619
G1 X113.551 Y77.063 E-.0169
;WIPE_END
G1 Z.4 F720
G1 X113.405 Y96.9 F9000
G1 Z.2 F720
G1 E3.2 F2400
M204 P600
;TYPE:Perimeter
G1 F1200
G1 X113.558 Y97.567 E.02146
G1 X113.571 Y98.316 E.02349
G1 X113.427 Y99.051 E.02348
G1 X113.134 Y99.741 E.0235
G1 X112.703 Y100.354 E.0235
G1 X112.155 Y100.865 E.02349
G1 X111.512 Y101.25 E.0235
G1 X110.803 Y101.494 E.02351
G1 X110.059 Y101.584 E.0235
G1 X109.313 Y101.518 E.02348
G1 X108.596 Y101.298 E.02352
G1 X107.941 Y100.935 E.02348
G1 X107.376 Y100.442 E.02351
G1 X106.925 Y99.843 E.02351
G1 X106.609 Y99.164 E.02348
G1 X106.442 Y98.434 E.02348
G1 X106.429 Y97.684 E.02352
G1 X106.565 Y97.003 E.02177
G1 X106.857 Y96.279 E.02448
G1 X107.297 Y95.646 E.02417
G1 X107.845 Y95.135 E.02349
G1 X108.488 Y94.75 E.0235
G1 X109.01 Y94.567 E.01734
G1 X109.311 Y94.482 E.00981
G1 X109.917 Y94.417 E.01911
G1 X110.684 Y94.481 E.02413
G1 X111.404 Y94.702 E.02361
G1 X112.155 Y95.135 E.02718
G1 X112.627 Y95.56 E.01991
G1 X113.075 Y96.157 E.0234
G1 X113.392 Y96.841 E.02364
M204 P1000
G1 X113.04 Y96.976 F9000
M204 P600
;TYPE:External perimeter
G1 F1200
G1 X113.19 Y97.645 E.0215
G1 X113.194 Y98.316 E.02104
G1 X113.058 Y98.973 E.02104
G1 X112.789 Y99.588 E.02105
G1 X112.398 Y100.133 E.02103
G1 X111.902 Y100.585 E.02104
G1 X111.323 Y100.924 E.02104
G1 X110.687 Y101.135 E.02101
G1 X110.02 Y101.209 E.02104
G1 X109.352 Y101.143 E.02105
G1 X108.713 Y100.94 E.02102
G1 X108.13 Y100.608 E.02104
G1 X107.628 Y100.162 E.02105
G1 X107.231 Y99.622 E.02101
G1 X106.954 Y99.011 E.02103
G1 X106.81 Y98.355 E.02106
G1 X106.806 Y97.684 E.02104
G1 X106.933 Y97.084 E.01923
G1 X107.201 Y96.434 E.02204
G1 X107.602 Y95.867 E.02177
G1 X108.098 Y95.415 E.02104
G1 X108.677 Y95.076 E.02104
G1 X109.313 Y94.865 E.02101
G1 X109.955 Y94.792 E.02026
G1 X110.647 Y94.857 E.02179
G1 X111.287 Y95.06 E.02105
G1 X111.87 Y95.392 E.02104
G1 X112.372 Y95.838 E.02105
G1 X112.769 Y96.378 E.02101
G1 X113.015 Y96.922 E.01872
M204 P1000
G1 X113.432 Y97.056 F9000
G1 E-2.24 F4200
;WIPE_START
G1 F7200
G1 X113.19 Y97.645 E-.41223
G1 X113.194 Y98.316 E-.37185
G1 X113.13 Y98.627 E-.17592
;WIPE_END
G1 Z.4 F720
G1 X88.102 Y96.216 F9000
G1 Z.2 F720
G1 E3.2 F2400
M204 P600
;TYPE:Perimeter
G1 F1200
G1 X88.371 Y96.792 E.01993
G1 X88.546 Y97.509 E.02314
G1 X88.571 Y98.316 E.02532
G1 X88.427 Y99.051 E.02348
G1 X88.134 Y99.741 E.0235
G1 X87.703 Y100.354 E.0235
G1 X87.155 Y100.865 E.02349
G1 X86.512 Y101.25 E.0235
G1 X85.803 Y101.494 E.02351
G1 X85.059 Y101.584 E.0235
G1 X84.313 Y101.518 E.02348
G1 X83.596 Y101.298 E.02352
G1 X82.941 Y100.934 E.0235
G1 X82.376 Y100.442 E.02349
G1 X81.925 Y99.843 E.02351
G1 X81.609 Y99.164 E.02348
G1 X81.442 Y98.433 E.02351
G1 X81.429 Y97.684 E.02349
G1 X81.565 Y97.003 E.02177
G1 X81.857 Y96.279 E.02448
G1 X82.297 Y95.646 E.02417
G1 X82.845 Y95.135 E.02349
G1 X83.488 Y94.75 E.0235
G1 X84.311 Y94.482 E.02714
G1 X84.917 Y94.417 E.01911
G1 X85.684 Y94.481 E.02413
G1 X86.404 Y94.702 E.02361
G1 X87.155 Y95.135 E.02718
G1 X87.627 Y95.56 E.01991
G1 X88.077 Y96.162 E.02357
M204 P1000
G1 X87.647 Y96.212 F9000
M204 P600
;TYPE:External perimeter
G1 F1200
G1 X87.769 Y96.378 E.00646
G1 X88.026 Y96.945 E.01952
G1 X88.178 Y97.588 E.02072
G1 X88.194 Y98.316 E.02283
G1 X88.058 Y98.973 E.02104
G1 X87.789 Y99.587 E.02102
G1 X87.398 Y100.133 E.02106
G1 X86.902 Y100.585 E.02104
G1 X86.323 Y100.924 E.02104
G1 X85.687 Y101.135 E.02101
G1 X85.02 Y101.209 E.02104
G1 X84.352 Y101.143 E.02105
G1 X83.713 Y100.94 E.02102
G1 X83.13 Y100.608 E.02104
G1 X82.628 Y100.162 E.02105
G1 X82.231 Y99.622 E.02101
G1 X81.954 Y99.01 E.02106
G1 X81.81 Y98.355 E.02103
G1 X81.806 Y97.684 E.02104
G1 X81.933 Y97.084 E.01923
G1 X82.201 Y96.433 E.02207
G1 X82.602 Y95.867 E.02175
G1 X83.098 Y95.415 E.02104
G1 X83.677 Y95.076 E.02104
G1 X84.313 Y94.865 E.02101
G1 X84.955 Y94.792 E.02026
G1 X85.647 Y94.857 E.02179
G1 X86.287 Y95.06 E.02105
G1 X86.87 Y95.392 E.02104
G1 X87.372 Y95.838 E.02105
G1 X87.611 Y96.164 E.01267
M204 P1000
G1 X87.851 Y96.181 F9000
G1 E-2.24 F4200
;WIPE_START
G1 F7200
G1 X87.769 Y96.378 E-.14741
G1 X88.026 Y96.945 E-.34498
G1 X88.178 Y97.588 E-.36615
G1 X88.182 Y97.771 E-.10146
;WIPE_END
G1 Z.4 F720
G1 X83.185 Y70.906 F9000
G1 Z.2 F720
G1 E3.2 F2400
M204 P600
;TYPE:Perimeter
G1 F1200
G1 X84.01 Y70.626 E.02732
G1 X84.91 Y70.517 E.02843
G1 X85.951 Y70.615 E.03278
G1 X86.77 Y70.879 E.02698
G1 X87.588 Y71.337 E.02939
G1 X88.293 Y71.955 E.0294
G1 X88.854 Y72.707 E.02942
G1 X89.225 Y73.51 E.02773
G1 X89.454 Y74.472 E.03101
G1 X89.466 Y75.41 E.02941
G1 X89.283 Y76.329 E.02938
G1 X88.913 Y77.191 E.02941
G1 X88.372 Y77.957 E.0294
G1 X87.684 Y78.593 E.02938
G1 X86.77 Y79.121 E.0331
G1 X85.99 Y79.374 E.02571
G1 X84.997 Y79.487 E.03134
G1 X84.01 Y79.374 E.03115
G1 X83.23 Y79.121 E.02571
G1 X82.412 Y78.663 E.02939
G1 X81.707 Y78.045 E.0294
G1 X81.146 Y77.293 E.02942
G1 X80.753 Y76.442 E.02939
G1 X80.546 Y75.528 E.02938
G1 X80.534 Y74.59 E.02941
G1 X80.537 Y74.644 E.0017
G1 X80.717 Y73.671 E.03103
G1 X81.087 Y72.809 E.02941
G1 X81.628 Y72.043 E.0294
G1 X82.316 Y71.407 E.02938
G1 X83.128 Y70.925 E.02961
M204 P1000
G1 X83.298 Y71.261 F9000
M204 P600
;TYPE:External perimeter
G1 F1200
G1 X84.126 Y70.985 E.02737
G1 X84.95 Y70.892 E.026
G1 X85.834 Y70.976 E.02784
G1 X86.653 Y71.238 E.02696
G1 X87.399 Y71.664 E.02694
G1 X88.041 Y72.236 E.02696
G1 X88.549 Y72.928 E.02692
G1 X88.881 Y73.663 E.02529
G1 X89.085 Y74.551 E.02857
G1 X89.089 Y75.41 E.02693
G1 X88.914 Y76.251 E.02693
G1 X88.569 Y77.037 E.02691
G1 X88.067 Y77.735 E.02696
G1 X87.431 Y78.313 E.02695
G1 X86.653 Y78.762 E.02816
G1 X85.874 Y79.015 E.02568
G1 X85.02 Y79.109 E.02694
G1 X84.126 Y79.015 E.02819
G1 X83.347 Y78.762 E.02568
G1 X82.601 Y78.336 E.02694
G1 X81.959 Y77.764 E.02696
G1 X81.451 Y77.072 E.02692
G1 X81.098 Y76.289 E.02693
G1 X80.915 Y75.449 E.02696
G1 X80.911 Y74.59 E.02693
G1 X80.912 Y74.608 E.00057
G1 X81.086 Y73.749 E.02748
G1 X81.431 Y72.962 E.02694
G1 X81.933 Y72.265 E.02693
G1 X82.569 Y71.687 E.02695
G1 X83.246 Y71.292 E.02458
M204 P1000
G1 X83.337 Y70.863 F9000
G1 E-2.24 F4200
;WIPE_START
G1 F7200
G1 X84.126 Y70.985 E-.51649
G1 X84.921 Y70.895 E-.44351
;WIPE_END
G1 Z.4 F720
G1 X63.323 Y78.002 F9000
G1 Z.2 F720
G1 E3.2 F2400
M204 P600
;TYPE:Perimeter
G1 F1200
G1 X62.684 Y78.593 E.02729
G1 X61.77 Y79.121 E.0331
G1 X60.99 Y79.374 E.02571
G1 X59.95 Y79.485 E.03279
G1 X59.01 Y79.374 E.02968
G1 X58.23 Y79.121 E.02571
G1 X57.412 Y78.663 E.02939
G1 X56.707 Y78.045 E.0294
G1 X56.146 Y77.293 E.02942
G1 X55.753 Y76.442 E.02939
G1 X55.546 Y75.528 E.02938
G1 X55.534 Y74.59 E.02941
G1 X55.717 Y73.671 E.02938
G1 X56.087 Y72.809 E.02941
G1 X56.628 Y72.043 E.0294
G1 X57.316 Y71.407 E.02938
G1 X58.122 Y70.927 E.02941
G1 X59.01 Y70.626 E.0294
G1 X59.91 Y70.517 E.02843
G1 X60.871 Y70.601 E.03025
G1 X61.77 Y70.879 E.0295
G1 X62.588 Y71.337 E.02939
G1 X63.293 Y71.955 E.0294
G1 X63.854 Y72.707 E.02942
G1 X64.247 Y73.558 E.02939
G1 X64.454 Y74.472 E.02938
G1 X64.466 Y75.41 E.02941
G1 X64.463 Y75.356 E.0017
G1 X64.283 Y76.329 E.03103
G1 X63.913 Y77.191 E.02941
G1 X63.367 Y77.961 E.0296
M204 P1000
G1 X62.881 Y77.904 F9000
M204 P600
;TYPE:External perimeter
G1 F1200
G1 X62.431 Y78.313 E.01907
G1 X61.653 Y78.762 E.02816
G1 X60.874 Y79.015 E.02568
G1 X59.983 Y79.11 E.02809
G1 X59.165 Y79.024 E.02579
G1 X58.347 Y78.762 E.02693
G1 X57.601 Y78.336 E.02694
G1 X56.959 Y77.764 E.02696
G1 X56.451 Y77.072 E.02692
G1 X56.098 Y76.289 E.02693
G1 X55.915 Y75.449 E.02696
G1 X55.911 Y74.59 E.02693
G1 X56.086 Y73.749 E.02693
G1 X56.431 Y72.962 E.02694
G1 X56.933 Y72.265 E.02693
G1 X57.569 Y71.687 E.02695
G1 X58.311 Y71.254 E.02694
G1 X59.126 Y70.985 E.02691
G1 X59.95 Y70.892 E.026
G1 X60.834 Y70.976 E.02784
G1 X61.653 Y71.238 E.02696
G1 X62.399 Y71.664 E.02694
G1 X63.041 Y72.236 E.02696
G1 X63.549 Y72.928 E.02692
G1 X63.902 Y73.711 E.02693
G1 X64.085 Y74.551 E.02696
G1 X64.089 Y75.41 E.02693
M73 P2 R72
G1 X64.088 Y75.392 E.00057
G1 X63.914 Y76.251 E.02748
G1 X63.569 Y77.038 E.02694
G1 X63.067 Y77.735 E.02693
G1 X62.925 Y77.864 E.00602
M204 P1000
G1 X62.987 Y78.29 F9000
G1 E-2.24 F4200
;WIPE_START
G1 F7200
G1 X62.431 Y78.313 E-.36994
G1 X61.653 Y78.762 E-.49779
G1 X61.495 Y78.813 E-.09227
;WIPE_END
G1 Z.4 F720
G1 X59.25 Y101.499 F9000
G1 Z.2 F720
G1 E3.2 F2400
M204 P600
;TYPE:Perimeter
G1 F1200
G1 X58.596 Y101.298 E.02145
G1 X57.963 Y100.949 E.02266
G1 X57.378 Y100.445 E.02421
G1 X56.894 Y99.794 E.02543
G1 X56.609 Y99.164 E.02168
G1 X56.442 Y98.433 E.02351
G1 X56.429 Y97.684 E.02349
G1 X56.583 Y96.922 E.02437
G1 X56.867 Y96.258 E.02264
G1 X57.297 Y95.646 E.02345
G1 X57.845 Y95.135 E.02349
G1 X58.488 Y94.75 E.0235
G1 X59.311 Y94.482 E.02714
G1 X59.917 Y94.417 E.01911
G1 X60.684 Y94.481 E.02413
G1 X61.404 Y94.702 E.02361
G1 X62.155 Y95.135 E.02718
G1 X62.627 Y95.56 E.01991
G1 X63.075 Y96.157 E.0234
G1 X63.371 Y96.792 E.02197
G1 X63.546 Y97.509 E.02314
G1 X63.571 Y98.316 E.02532
G1 X63.427 Y99.051 E.02348
G1 X63.134 Y99.741 E.0235
G1 X62.703 Y100.354 E.0235
G1 X62.155 Y100.865 E.02349
G1 X61.512 Y101.25 E.0235
G1 X60.803 Y101.494 E.02351
G1 X60.059 Y101.584 E.0235
G1 X59.307 Y101.517 E.02367
M204 P1000
G1 X59.427 Y101.151 F9000
M204 P600
;TYPE:External perimeter
G1 F1200
G1 X59.352 Y101.143 E.00236
G1 X58.713 Y100.94 E.02102
G1 X58.151 Y100.622 E.02025
G1 X57.629 Y100.163 E.02179
G1 X57.22 Y99.605 E.02169
