; generated by PrusaSlicer 2.6.0-alpha5+win64 on 2023-06-18 at 04:28:08 UTC


;
;

;
;
; 

; external perimeters extrusion width = 0.45mm
; perimeters extrusion width = 0.45mm
; infill extrusion width = 0.45mm
; solid infill extrusion width = 0.45mm
; top infill extrusion width = 0.40mm
; support material extrusion width = 0.35mm
; first layer extrusion width = 0.42mm

M73 P0 R19
M201 X2500 Y2500 Z400 E5000 ; sets maximum accelerations, mm/sec^2
M203 X180 Y180 Z12 E80 ; sets maximum feedrates, mm / sec
M204 P2000 R1250 T2500 ; sets acceleration (P, T) and retract acceleration (R), mm/sec^2
M205 X8.00 Y8.00 Z2.00 E10.00 ; sets the jerk limits, mm/sec
M205 S0 T0 ; sets the minimum extruding and travel feed rate, mm/sec
M107
;TYPE:Custom
M862.3 P "MINI" ; printer model check
G90 ; use absolute coordinates
M83 ; extruder relative mode
M104 S170 ; set extruder temp for bed leveling
M140 S60 ; set bed temp
M109 R170 ; wait for bed leveling temp
M190 S60 ; wait for bed temp
M204 T1250 ; set travel acceleration
G28 ; home all without mesh bed level
G29 ; mesh bed leveling 
M204 T2500 ; restore travel acceleration
M104 S215 ; set extruder temp
G92 E0
G1 Y-2 X179 F2400
G1 Z3 F720
M109 S215 ; wait for extruder temp

; intro line
G1 X170 F1000
G1 Z0.2 F720
G1 X110 E8 F900
G1 X40 E10 F700
G92 E0

M221 S95 ; set flow
G21 ; set units to millimeters
G90 ; use absolute coordinates
M83 ; use relative distances for extrusion
M900 K0.2 ; Filament gcode LA 1.5
; ; Filament gcode LA 1.0
M107
;LAYER_CHANGE
;Z:0.2
;HEIGHT:0.2
;BEFORE_LAYER_CHANGE
G92 E0.0
;0.2


G1 E-3.2 F4200
M73 P1 R19
G1 Z.2 F720
;AFTER_LAYER_CHANGE
;0.2
G1 Z.4
G1 X49.06 Y75.317 F9000
G1 Z.2 F720
G1 E3.2 F2400
M204 P600
;TYPE:Skirt/Brim
;WIDTH:0.42
G1 F1200
G1 X50 Y75.123 E.03009
G1 X130 Y75.123 E2.50834
G1 X131.307 Y75.515 E.04278
G1 X132.183 Y76.56 E.04275
G1 X132.377 Y77.5 E.03009
G1 X132.377 Y102.5 E.78386
G1 X131.985 Y103.807 E.04278
G1 X130.94 Y104.683 E.04275
G1 X130 Y104.877 E.03009
G1 X50 Y104.877 E2.50834
G1 X48.693 Y104.485 E.04278
M73 P2 R19
G1 X47.817 Y103.44 E.04275
G1 X47.623 Y102.5 E.03009
G1 X47.623 Y77.5 E.78386
G1 X48.015 Y76.193 E.04278
G1 X49.014 Y75.355 E.04088
M204 P1000
; printing object usb_trials.stl id:0 copy 0
G1 E-2.24 F4200
;WIPE_START
G1 F7200
G1 X50 Y75.123 E-.56133
G1 X50.719 Y75.123 E-.39867
;WIPE_END
G1 Z.4 F720
G1 X129.213 Y78.287 F9000
G1 Z.2 F720
G1 E3.2 F2400
M204 P600
;TYPE:Perimeter
;WIDTH:0.419999
G1 F1200
G1 X129.213 Y101.713 E.7345
G1 X50.787 Y101.713 E2.45899
G1 X50.787 Y78.287 E.7345
G1 X129.153 Y78.287 E2.45711
M204 P1000
G1 X129.59 Y77.91 F9000
M204 P600
;TYPE:External perimeter
M73 P3 R19
G1 F1200
G1 X129.59 Y102.09 E.75815
G1 X50.41 Y102.09 E2.48263
G1 X50.41 Y77.91 E.75815
G1 X129.53 Y77.91 E2.48075
M204 P1000
G1 X129.425 Y78.274 F9000
M73 P4 R19
G1 E-2.24 F4200
;WIPE_START
G1 F7200
G1 X129.534 Y79.642 E-.96
;WIPE_END
G1 Z.4 F720
G1 X68.021 Y86.651 F9000
G1 Z.2 F720
G1 E3.2 F2400
M204 P600
;TYPE:Perimeter
G1 F1200
G1 X67.99 Y86.798 E.00471
G1 X67.815 Y87.021 E.00889
G1 X67.627 Y87.115 E.00659
G1 X67.471 Y87.137 E.00494
G1 X52.529 Y87.137 E.4685
G1 X52.311 Y87.094 E.00697
G1 X52.076 Y86.911 E.00934
G1 X51.963 Y86.571 E.01123
G1 X51.963 Y80.929 E.1769
G1 X52.076 Y80.589 E.01123
G1 X52.312 Y80.406 E.00936
G1 X52.529 Y80.363 E.00694
G1 X67.471 Y80.363 E.4685
G1 X67.79 Y80.461 E.01046
G1 X67.977 Y80.675 E.00891
G1 X68.02 Y80.791 E.00388
G1 X68.037 Y80.929 E.00436
G1 X68.033 Y86.592 E.17756
M204 P1000
G1 X67.66 Y86.571 F9000
M204 P600
;TYPE:External perimeter
G1 F1200
G1 X67.586 Y86.721 E.00524
G1 X67.471 Y86.76 E.00381
G1 X52.529 Y86.76 E.4685
G1 X52.378 Y86.685 E.00529
G1 X52.34 Y86.571 E.00377
G1 X52.34 Y80.929 E.1769
G1 X52.378 Y80.815 E.00377
G1 X52.529 Y80.74 E.00529
G1 X67.471 Y80.74 E.4685
G1 X67.578 Y80.773 E.00351
G1 X67.654 Y80.883 E.00419
G1 X67.66 Y80.929 E.00145
G1 X67.66 Y86.511 E.17502
M204 P1000
G1 X67.773 Y86.695 F9000
G1 E-2.24 F4200
;WIPE_START
G1 F7200
G1 X67.586 Y86.721 E-.12339
G1 X67.471 Y86.76 E-.06729
G1 X66.083 Y86.76 E-.76932
;WIPE_END
G1 Z.4 F720
G1 X87.119 Y86.649 F9000
G1 Z.2 F720
G1 E3.2 F2400
M204 P600
;TYPE:Perimeter
G1 F1200
G1 X87.081 Y86.817 E.0054
G1 X86.898 Y87.033 E.00888
G1 X86.717 Y87.118 E.00627
G1 X86.571 Y87.137 E.00462
G1 X71.429 Y87.137 E.47477
G1 X71.147 Y87.062 E.00915
G1 X71.002 Y86.943 E.00588
G1 X70.91 Y86.798 E.00538
G1 X70.863 Y86.571 E.00727
G1 X70.863 Y80.929 E.1769
G1 X70.923 Y80.675 E.00818
G1 X71.11 Y80.461 E.00891
G1 X71.429 Y80.363 E.01046
M73 P4 R18
G1 X86.571 Y80.363 E.47477
G1 X86.875 Y80.451 E.00992
G1 X87.063 Y80.649 E.00856
G1 X87.137 Y80.929 E.00908
G1 X87.133 Y86.59 E.1775
M204 P1000
G1 X86.76 Y86.571 F9000
M204 P600
;TYPE:External perimeter
G1 F1200
G1 X86.709 Y86.701 E.00438
G1 X86.571 Y86.76 E.00471
G1 X71.429 Y86.76 E.47477
G1 X71.286 Y86.695 E.00493
G1 X71.24 Y86.571 E.00415
G1 X71.24 Y80.929 E.1769
G1 X71.322 Y80.773 E.00553
G1 X71.429 Y80.74 E.00351
G1 X86.571 Y80.74 E.47477
G1 X86.673 Y80.769 E.00332
G1 X86.752 Y80.875 E.00415
G1 X86.76 Y80.929 E.00171
G1 X86.76 Y86.511 E.17502
M204 P1000
G1 X86.859 Y86.669 F9000
G1 E-2.24 F4200
;WIPE_START
G1 F7200
G1 X86.709 Y86.701 E-.10902
G1 X86.571 Y86.76 E-.08317
G1 X85.185 Y86.76 E-.76781
;WIPE_END
G1 Z.4 F720
G1 X87.115 Y99.104 F9000
G1 Z.2 F720
G1 E3.2 F2400
M204 P600
;TYPE:Perimeter
G1 F1200
G1 X87.061 Y99.305 E.00653
G1 X86.873 Y99.5 E.00849
G1 X86.571 Y99.587 E.00985
G1 X71.429 Y99.587 E.47477
G1 X71.114 Y99.492 E.01032
M73 P5 R18
G1 X70.927 Y99.282 E.00882
G1 X70.863 Y99.021 E.00843
G1 X70.863 Y93.479 E.17377
G1 X70.91 Y93.252 E.00727
G1 X71.085 Y93.029 E.00889
G1 X71.273 Y92.935 E.00659
G1 X71.429 Y92.913 E.00494
G1 X86.571 Y92.913 E.47477
G1 X86.843 Y92.982 E.0088
G1 X86.989 Y93.097 E.00583
G1 X87.086 Y93.244 E.00552
G1 X87.137 Y93.479 E.00754
G1 X87.131 Y99.046 E.17455
M204 P1000
G1 X86.76 Y99.021 F9000
M204 P600
;TYPE:External perimeter
G1 F1200
G1 X86.735 Y99.116 E.00308
G1 X86.604 Y99.207 E.005
G1 X86.571 Y99.21 E.00104
G1 X71.429 Y99.21 E.47477
G1 X71.324 Y99.178 E.00344
G1 X71.24 Y99.021 E.00558
G1 X71.24 Y93.479 E.17377
G1 X71.314 Y93.329 E.00524
G1 X71.429 Y93.29 E.00381
G1 X86.571 Y93.29 E.47477
G1 X86.711 Y93.351 E.00479
G1 X86.76 Y93.479 E.0043
G1 X86.76 Y98.961 E.17188
M204 P1000
G1 X86.835 Y99.084 F9000
G1 E-2.24 F4200
;WIPE_START
G1 F7200
G1 X86.735 Y99.116 E-.08701
G1 X86.604 Y99.207 E-.08839
G1 X86.571 Y99.21 E-.01836
G1 X85.188 Y99.21 E-.76624
;WIPE_END
G1 Z.4 F720
G1 X68.018 Y99.098 F9000
G1 Z.2 F720
G1 E3.2 F2400
M204 P600
;TYPE:Perimeter
G1 F1200
G1 X67.973 Y99.282 E.00594
G1 X67.786 Y99.492 E.00882
G1 X67.471 Y99.587 E.01032
G1 X52.529 Y99.587 E.4685
G1 X52.321 Y99.548 E.00664
G1 X52.08 Y99.366 E.00947
G1 X51.963 Y99.021 E.01142
G1 X51.963 Y93.479 E.17377
G1 X52.076 Y93.139 E.01123
G1 X52.311 Y92.956 E.00934
G1 X52.529 Y92.913 E.00697
G1 X67.471 Y92.913 E.4685
G1 X67.753 Y92.988 E.00915
G1 X67.898 Y93.107 E.00588
G1 X67.99 Y93.252 E.00538
G1 X68.037 Y93.479 E.00727
G1 X68.033 Y99.04 E.17436
M204 P1000
G1 X67.66 Y99.021 F9000
M204 P600
;TYPE:External perimeter
G1 F1200
G1 X67.639 Y99.108 E.00281
G1 X67.576 Y99.178 E.00295
G1 X67.471 Y99.21 E.00344
G1 X52.529 Y99.21 E.4685
G1 X52.379 Y99.136 E.00524
G1 X52.34 Y99.021 E.00381
G1 X52.34 Y93.479 E.17377
G1 X52.378 Y93.365 E.00377
G1 X52.529 Y93.29 E.00529
G1 X67.471 Y93.29 E.4685
G1 X67.614 Y93.355 E.00493
G1 X67.66 Y93.479 E.00415
G1 X67.66 Y98.961 E.17188
M204 P1000
G1 X67.73 Y99.078 F9000
G1 E-2.24 F4200
;WIPE_START
G1 F7200
G1 X67.639 Y99.108 E-.08229
G1 X67.576 Y99.178 E-.05219
G1 X67.471 Y99.21 E-.06083
G1 X66.091 Y99.21 E-.76469
;WIPE_END
G1 Z.4 F720
G1 X105.703 Y99.584 F9000
G1 Z.2 F720
G1 E3.2 F2400
M204 P600
;TYPE:Perimeter
G1 F1200
G1 X90.329 Y99.587 E.48204
G1 X90.027 Y99.5 E.00985
G1 X89.839 Y99.305 E.00849
G1 X89.763 Y99.021 E.00922
G1 X89.763 Y93.479 E.17377
G1 X89.814 Y93.244 E.00754
G1 X89.995 Y93.022 E.00898
G1 X90.279 Y92.915 E.00952
G1 X90.329 Y92.913 E.00157
G1 X105.671 Y92.913 E.48104
G1 X105.932 Y92.976 E.00842
G1 X106.079 Y93.086 E.00576
G1 X106.181 Y93.233 E.00561
G1 X106.237 Y93.479 E.00791
G1 X106.237 Y99.021 E.17377
G1 X106.21 Y99.194 E.00549
M73 P6 R18
G1 X106.147 Y99.327 E.00461
G1 X105.959 Y99.509 E.0082
G1 X105.762 Y99.579 E.00656
M204 P1000
G1 X105.671 Y99.21 F9000
M204 P600
;TYPE:External perimeter
G1 F1200
G1 X90.329 Y99.21 E.48104
G1 X90.228 Y99.181 E.00329
G1 X90.14 Y99.021 E.00573
G1 X90.14 Y93.479 E.17377
G1 X90.217 Y93.326 E.00537
G1 X90.329 Y93.29 E.00369
G1 X105.671 Y93.29 E.48104
G1 X105.807 Y93.348 E.00464
G1 X105.86 Y93.479 E.00443
G1 X105.86 Y99.021 E.17377
G1 X105.83 Y99.123 E.00333
G1 X105.727 Y99.192 E.00389
M204 P1000
G1 X105.568 Y99.596 F9000
G1 E-2.24 F4200
;WIPE_START
G1 F7200
G1 X103.995 Y99.194 E-.96
;WIPE_END
G1 Z.4 F720
G1 X105.716 Y87.181 F9000
G1 Z.2 F720
G1 E3.2 F2400
M204 P600
;TYPE:Perimeter
G1 F1200
G1 X90.329 Y87.187 E.48245
G1 X90.05 Y87.114 E.00904
G1 X89.907 Y86.999 E.00575
G1 X89.813 Y86.854 E.00542
G1 X89.763 Y86.571 E.00901
G1 X89.763 Y80.879 E.17847
G1 X89.83 Y80.612 E.00863
G1 X90.017 Y80.406 E.00872
G1 X90.329 Y80.313 E.01021
G1 X105.671 Y80.313 E.48104
G1 X105.967 Y80.396 E.00964
G1 X106.155 Y80.585 E.00836
G1 X106.237 Y80.879 E.00957
G1 X106.237 Y86.621 E.18004
G1 X106.181 Y86.867 E.00791
G1 X105.993 Y87.087 E.00907
G1 X105.775 Y87.174 E.00736
M204 P1000
G1 X105.671 Y86.81 F9000
M204 P600
;TYPE:External perimeter
G1 F1200
G1 X90.329 Y86.81 E.48104
G1 X90.188 Y86.747 E.00484
G1 X90.14 Y86.571 E.00572
G1 X90.14 Y80.879 E.17847
G1 X90.162 Y80.79 E.00287
G1 X90.296 Y80.693 E.00519
G1 X90.329 Y80.69 E.00104
G1 X105.671 Y80.69 E.48104
G1 X105.833 Y80.781 E.00583
G1 X105.86 Y80.879 E.00319
G1 X105.86 Y86.621 E.18004
G1 X105.807 Y86.752 E.00443
G1 X105.729 Y86.798 E.00284
M204 P1000
G1 X105.568 Y87.196 F9000
G1 E-2.24 F4200
;WIPE_START
G1 F7200
G1 X103.997 Y86.799 E-.96
;WIPE_END
G1 Z.4 F720
G1 X124.806 Y87.184 F9000
G1 Z.2 F720
G1 E3.2 F2400
M204 P600
;TYPE:Perimeter
G1 F1200
G1 X109.229 Y87.187 E.48841
G1 X108.968 Y87.124 E.00842
G1 X108.821 Y87.014 E.00576
G1 X108.719 Y86.867 E.00561
G1 X108.663 Y86.621 E.00791
G1 X108.663 Y80.879 E.18004
G1 X108.745 Y80.585 E.00957
G1 X108.933 Y80.396 E.00836
G1 X109.229 Y80.313 E.00964
G1 X124.771 Y80.313 E.48731
G1 X125.047 Y80.385 E.00894
G1 X125.235 Y80.554 E.00793
G1 X125.32 Y80.742 E.00647
G1 X125.337 Y80.879 E.00433
G1 X125.337 Y86.621 E.18004
G1 X125.305 Y86.81 E.00601
G1 X125.218 Y86.968 E.00566
G1 X124.976 Y87.149 E.00948
G1 X124.865 Y87.178 E.0036
M204 P1000
G1 X124.771 Y86.81 F9000
M204 P600
;TYPE:External perimeter
G1 F1200
G1 X109.229 Y86.81 E.48731
G1 X109.093 Y86.752 E.00464
G1 X109.04 Y86.621 E.00443
G1 X109.04 Y80.879 E.18004
G1 X109.067 Y80.781 E.00319
G1 X109.196 Y80.693 E.0049
G1 X109.229 Y80.69 E.00104
G1 X124.771 Y80.69 E.48731
G1 X124.926 Y80.77 E.00547
M73 P7 R18
G1 X124.96 Y80.879 E.00358
G1 X124.96 Y86.621 E.18004
G1 X124.92 Y86.737 E.00385
G1 X124.828 Y86.794 E.00339
M204 P1000
G1 X124.668 Y87.196 F9000
G1 E-2.24 F4200
;WIPE_START
G1 F7200
G1 X123.096 Y86.796 E-.96
;WIPE_END
G1 Z.4 F720
G1 X124.803 Y99.584 F9000
G1 Z.2 F720
G1 E3.2 F2400
M204 P600
;TYPE:Perimeter
G1 F1200
G1 X109.229 Y99.587 E.48831
G1 X108.941 Y99.509 E.00936
G1 X108.753 Y99.327 E.0082
G1 X108.663 Y99.021 E.01
G1 X108.663 Y93.479 E.17377
G1 X108.719 Y93.233 E.00791
G1 X108.907 Y93.013 E.00907
G1 X109.179 Y92.915 E.00907
G1 X109.229 Y92.913 E.00157
G1 X124.771 Y92.913 E.48731
G1 X124.976 Y92.951 E.00654
G1 X125.218 Y93.132 E.00948
G1 X125.305 Y93.29 E.00566
G1 X125.337 Y93.479 E.00601
G1 X125.337 Y99.021 E.17377
G1 X125.315 Y99.177 E.00494
G1 X125.225 Y99.359 E.00637
G1 X125.039 Y99.52 E.00771
G1 X124.862 Y99.579 E.00585
M204 P1000
G1 X124.771 Y99.21 F9000
M204 P600
;TYPE:External perimeter
G1 F1200
G1 X109.229 Y99.21 E.48731
G1 X109.07 Y99.123 E.00568
G1 X109.04 Y99.021 E.00333
G1 X109.04 Y93.479 E.17377
G1 X109.121 Y93.323 E.00551
G1 X109.229 Y93.29 E.00354
G1 X124.771 Y93.29 E.48731
G1 X124.92 Y93.363 E.0052
G1 X124.96 Y93.479 E.00385
G1 X124.96 Y99.021 E.17377
G1 X124.923 Y99.134 E.00373
G1 X124.827 Y99.193 E.00353
M204 P1000
G1 X124.668 Y99.596 F9000
G1 E-2.24 F4200
;WIPE_START
G1 F7200
G1 X123.095 Y99.195 E-.96
;WIPE_END
G1 Z.4 F720
G1 X129.043 Y79.223 F9000
G1 Z.2 F720
G1 E3.2 F2400
M204 P600
;TYPE:Solid infill
;WIDTH:0.421721
G1 F1200
G1 X128.447 Y78.626 E.02657
G1 X127.911 Y78.626 E.01688
G1 X128.874 Y79.589 E.0429
G1 X128.874 Y80.124 E.01685
G1 X127.376 Y78.626 E.06673
G1 X126.84 Y78.626 E.01688
G1 X128.874 Y80.66 E.0906
G1 X128.874 Y81.196 E.01688
G1 X126.304 Y78.626 E.11448
G1 X125.768 Y78.626 E.01688
G1 X128.874 Y81.732 E.13835
G1 X128.874 Y82.267 E.01685
G1 X125.233 Y78.626 E.16219
G1 X124.697 Y78.626 E.01688
G1 X128.874 Y82.803 E.18606
G1 X128.874 Y83.339 E.01688
G1 X124.161 Y78.626 E.20994
G1 X123.626 Y78.626 E.01685
G1 X128.874 Y83.874 E.23377
G1 X128.874 Y84.41 E.01688
G1 X125.676 Y81.213 E.14243
G1 X125.676 Y81.749 E.01688
G1 X128.874 Y84.946 E.14243
G1 X128.874 Y85.481 E.01685
G1 X125.676 Y82.284 E.14243
G1 X125.676 Y82.82 E.01688
G1 X128.874 Y86.017 E.14243
G1 X128.874 Y86.553 E.01688
G1 X125.676 Y83.356 E.14243
G1 X125.676 Y83.891 E.01685
G1 X128.874 Y87.089 E.14245
G1 X128.874 Y87.624 E.01685
G1 X125.676 Y84.427 E.14243
G1 X125.676 Y84.963 E.01688
G1 X128.874 Y88.16 E.14243
G1 X128.874 Y88.696 E.01688
G1 X125.676 Y85.499 E.14243
G1 X125.676 Y86.034 E.01685
G1 X128.874 Y89.231 E.14243
G1 X128.874 Y89.767 E.01688
G1 X125.676 Y86.57 E.14243
G1 X125.627 Y86.923 E.01123
G1 X125.58 Y87.009 E.00309
G1 X128.874 Y90.303 E.14673
G1 X128.874 Y90.839 E.01688
G1 X125.347 Y87.312 E.15711
G1 X125.301 Y87.357 E.00203
G1 X125.102 Y87.465 E.00713
G1 X124.995 Y87.496 E.00351
G1 X128.874 Y91.374 E.17276
G1 X128.874 Y91.91 E.01688
M73 P8 R18
G1 X124.49 Y87.526 E.19528
G1 X123.954 Y87.526 E.01688
G1 X128.874 Y92.446 E.21916
G1 X128.874 Y92.981 E.01685
G1 X123.419 Y87.526 E.24299
G1 X122.883 Y87.526 E.01688
G1 X128.874 Y93.517 E.26686
G1 X128.874 Y94.053 E.01688
G1 X122.347 Y87.526 E.29074
G1 X121.812 Y87.526 E.01685
G1 X128.874 Y94.588 E.31457
G1 X128.874 Y95.124 E.01688
G1 X121.276 Y87.526 E.33845
G1 X120.74 Y87.526 E.01688
G1 X128.874 Y95.66 E.36232
G1 X128.874 Y96.196 E.01688
G1 X120.204 Y87.526 E.3862
G1 X119.669 Y87.526 E.01685
G1 X124.716 Y92.574 E.22484
G1 X124.943 Y92.589 E.00717
G1 X125.102 Y92.635 E.00521
G1 X125.301 Y92.743 E.00713
G1 X125.489 Y92.924 E.00822
G1 X125.627 Y93.177 E.00908
G1 X125.676 Y93.534 E.01135
G1 X128.874 Y96.731 E.14243
G1 X128.874 Y97.267 E.01688
G1 X125.676 Y94.07 E.14243
G1 X125.676 Y94.606 E.01688
G1 X128.874 Y97.803 E.14243
G1 X128.874 Y98.338 E.01685
G1 X125.676 Y95.141 E.14243
G1 X125.676 Y95.677 E.01688
G1 X128.874 Y98.874 E.14243
G1 X128.874 Y99.41 E.01688
G1 X125.676 Y96.213 E.14243
G1 X125.676 Y96.748 E.01685
G1 X128.874 Y99.946 E.14245
G1 X128.874 Y100.481 E.01685
G1 X125.676 Y97.284 E.14243
G1 X125.676 Y97.82 E.01688
G1 X128.874 Y101.017 E.14243
G1 X128.874 Y101.374 E.01124
G1 X128.694 Y101.374 E.00567
G1 X125.676 Y98.356 E.13443
G1 X125.676 Y98.891 E.01685
G1 X128.159 Y101.374 E.1106
G1 X127.623 Y101.374 E.01688
G1 X125.603 Y99.354 E.08998
G1 X125.498 Y99.566 E.00745
G1 X125.381 Y99.667 E.00487
G1 X127.087 Y101.374 E.07601
G1 X126.552 Y101.374 E.01685
G1 X125.051 Y99.872 E.06688
G1 X124.933 Y99.913 E.00393
G1 X124.569 Y99.926 E.01147
G1 X126.016 Y101.374 E.06448
G1 X125.48 Y101.374 E.01688
G1 X124.033 Y99.926 E.06448
G1 X123.497 Y99.926 E.01688
G1 X124.945 Y101.374 E.0645
G1 X124.409 Y101.374 E.01688
G1 X122.962 Y99.926 E.06448
G1 X122.426 Y99.926 E.01688
G1 X123.873 Y101.374 E.06448
G1 X123.337 Y101.374 E.01688
G1 X121.89 Y99.926 E.06448
G1 X121.355 Y99.926 E.01685
G1 X122.802 Y101.374 E.06448
G1 X122.266 Y101.374 E.01688
G1 X120.819 Y99.926 E.06448
G1 X120.283 Y99.926 E.01688
G1 X121.73 Y101.374 E.06448
G1 X121.195 Y101.374 E.01685
G1 X119.747 Y99.926 E.0645
G1 X119.212 Y99.926 E.01685
G1 X120.659 Y101.374 E.06448
G1 X120.123 Y101.374 E.01688
G1 X118.676 Y99.926 E.06448
G1 X118.14 Y99.926 E.01688
G1 X119.587 Y101.374 E.06448
G1 X119.052 Y101.374 E.01685
