; generated by PrusaSlicer 2.6.0-alpha5+win64 on 2023-06-17 at 18:58:41 UTC


;
;

;
;
; 

; external perimeters extrusion width = 0.45mm
; perimeters extrusion width = 0.45mm
; infill extrusion width = 0.45mm
; solid infill extrusion width = 0.45mm
; top infill extrusion width = 0.40mm
; support material extrusion width = 0.35mm
; first layer extrusion width = 0.42mm

; external perimeters extrusion width = 0.45mm
; perimeters extrusion width = 0.45mm
; infill extrusion width = 0.45mm
; solid infill extrusion width = 0.45mm
; top infill extrusion width = 0.40mm
; support material extrusion width = 0.35mm
; first layer extrusion width = 0.42mm

M73 P0 R25
M201 X2500 Y2500 Z400 E5000 ; sets maximum accelerations, mm/sec^2
M203 X180 Y180 Z12 E80 ; sets maximum feedrates, mm / sec
M204 P2000 R1250 T2500 ; sets acceleration (P, T) and retract acceleration (R), mm/sec^2
M205 X8.00 Y8.00 Z2.00 E10.00 ; sets the jerk limits, mm/sec
M205 S0 T0 ; sets the minimum extruding and travel feed rate, mm/sec
M107
;TYPE:Custom
M862.3 P "MINI" ; printer model check
G90 ; use absolute coordinates
M83 ; extruder relative mode
M104 S170 ; set extruder temp for bed leveling
M140 S60 ; set bed temp
M109 R170 ; wait for bed leveling temp
M190 S60 ; wait for bed temp
M204 T1250 ; set travel acceleration
G28 ; home all without mesh bed level
G29 ; mesh bed leveling 
M204 T2500 ; restore travel acceleration
M104 S215 ; set extruder temp
G92 E0
G1 Y-2 X179 F2400
G1 Z3 F720
M109 S215 ; wait for extruder temp

; intro line
G1 X170 F1000
G1 Z0.2 F720
G1 X110 E8 F900
G1 X40 E10 F700
G92 E0

M221 S95 ; set flow
G21 ; set units to millimeters
G90 ; use absolute coordinates
M83 ; use relative distances for extrusion
M900 K0.2 ; Filament gcode LA 1.5
; ; Filament gcode LA 1.0
M107
;LAYER_CHANGE
;Z:0.2
;HEIGHT:0.2
;BEFORE_LAYER_CHANGE
G92 E0.0
;0.2


G1 E-3.2 F4200
M73 P1 R25
G1 Z.2 F720
;AFTER_LAYER_CHANGE
;0.2
G1 Z.4
G1 X59.06 Y77.817 F9000
G1 Z.2 F720
G1 E3.2 F2400
M204 P600
;TYPE:Skirt/Brim
;WIDTH:0.42
G1 F1200
G1 X60 Y77.623 E.03009
G1 X120 Y77.623 E1.88126
G1 X121.307 Y78.015 E.04278
G1 X122.183 Y79.06 E.04275
G1 X122.377 Y80 E.03009
G1 X122.377 Y130 E1.56771
G1 X121.985 Y131.307 E.04278
G1 X120.94 Y132.183 E.04275
G1 X120 Y132.377 E.03009
G1 X60 Y132.377 E1.88126
G1 X58.693 Y131.985 E.04278
G1 X57.817 Y130.94 E.04275
G1 X57.623 Y130 E.03009
G1 X57.623 Y80 E1.56771
G1 X58.015 Y78.693 E.04278
G1 X59.014 Y77.855 E.04088
M204 P1000
; printing object Led_trials.stl id:0 copy 0
G1 E-2.24 F4200
;WIPE_START
G1 F7200
G1 X60 Y77.623 E-.56133
G1 X60.719 Y77.623 E-.39867
;WIPE_END
G1 Z.4 F720
G1 X78.806 Y91.983 F9000
G1 Z.2 F720
G1 E3.2 F2400
M204 P600
;TYPE:Perimeter
;WIDTH:0.419999
G1 F1200
G1 X79.427 Y91.613 E.02267
G1 X80.125 Y91.373 E.02314
G1 X80.737 Y91.286 E.01938
G1 X81.164 Y91.28 E.01339
G1 X81.715 Y91.335 E.01736
G1 X82.454 Y91.561 E.02423
G1 X82.896 Y91.799 E.01574
G1 X83.243 Y92.014 E.0128
G1 X83.736 Y92.457 E.02078
G1 X84.168 Y93.032 E.02255
G1 X84.508 Y93.732 E.0244
;WIDTH:0.443566
G1 X84.716 Y94.533 E.02757
;WIDTH:0.461728
G1 X84.741 Y95.332 E.02784
G1 X84.57 Y96.098 E.02733
;WIDTH:0.419999
G1 X84.264 Y96.816 E.02447
G1 X83.736 Y97.543 E.02817
G1 X83.243 Y97.986 E.02078
G1 X82.573 Y98.387 E.02448
;WIDTH:0.451529
G1 X82.208 Y98.529 E.01331
;WIDTH:0.483058
G1 X81.844 Y98.67 E.01429
G1 X81.062 Y98.76 E.02881
;WIDTH:0.506187
G1 X80.277 Y98.708 E.03031
G1 X79.906 Y98.572 E.01522
;WIDTH:0.463093
G1 X79.535 Y98.435 E.01382
;WIDTH:0.419999
G1 X78.853 Y98.056 E.02446
G1 X78.264 Y97.543 E.02449
G1 X77.796 Y96.918 E.02448
G1 X77.467 Y96.21 E.02448
;WIDTH:0.454051
G1 X77.392 Y95.96 E.00892
;WIDTH:0.488103
G1 X77.317 Y95.71 E.00966
;WIDTH:0.522154
G1 X77.242 Y95.46 E.0104
;WIDTH:0.56118
G1 X77.209 Y95.321 E.00616
G1 X77.209 Y94.668 E.02814
G1 X77.282 Y94.424 E.01098
;WIDTH:0.51414
G1 X77.354 Y94.18 E.00997
;WIDTH:0.46707
G1 X77.427 Y93.936 E.00898
;WIDTH:0.419999
G1 X77.713 Y93.236 E.02371
G1 X78.137 Y92.612 E.02365
G1 X78.568 Y92.184 E.01904
G1 X78.761 Y92.022 E.0079
M204 P1000
G1 X79.026 Y92.284 F9000
M204 P600
;TYPE:External perimeter
G1 F1200
G1 X79.616 Y91.939 E.02143
G1 X80.242 Y91.731 E.02068
G1 X80.777 Y91.661 E.01692
G1 X81.127 Y91.655 E.01098
G1 X81.678 Y91.71 E.01736
G1 X82.337 Y91.92 E.02169
G1 X82.959 Y92.271 E.02239
G1 X83.51 Y92.767 E.02324
G1 X83.863 Y93.253 E.01883
G1 X84.163 Y93.886 E.02196
G1 X84.336 Y94.614 E.02346
G1 X84.343 Y95.332 E.02251
G1 X84.201 Y96.019 E.022
G1 X83.919 Y96.663 E.02204
G1 X83.51 Y97.233 E.022
G1 X82.99 Y97.706 E.02204
G1 X82.384 Y98.061 E.02202
G1 X81.718 Y98.282 E.022
G1 X81.02 Y98.359 E.02202
G1 X80.321 Y98.29 E.02202
G1 X79.652 Y98.077 E.02201
G1 X79.041 Y97.729 E.02205
G1 X78.517 Y97.262 E.02201
G1 X78.101 Y96.697 E.022
G1 X77.811 Y96.057 E.02203
G1 X77.661 Y95.371 E.02202
G1 X77.657 Y94.679 E.0217
G1 X77.795 Y94.017 E.0212
G1 X78.057 Y93.39 E.02131
G1 X78.442 Y92.834 E.0212
G1 X78.981 Y92.323 E.02329
M204 P1000
G1 X78.981 Y91.886 F9000
G1 E-2.24 F4200
;WIPE_START
G1 F7200
G1 X79.616 Y91.939 E-.41124
G1 X80.242 Y91.731 E-.36556
M73 P2 R25
G1 X80.57 Y91.688 E-.1832
;WIPE_END
G1 Z.4 F720
G1 X91.846 Y97.564 F9000
G1 Z.2 F720
G1 E3.2 F2400
M204 P600
;TYPE:Perimeter
G1 F1200
G1 X91.302 Y98.067 E.02323
G1 X90.614 Y98.479 E.02514
;WIDTH:0.44934
G1 X89.86 Y98.752 E.0271
G1 X89.059 Y98.835 E.02721
;WIDTH:0.457145
G1 X88.259 Y98.781 E.02762
G1 X87.494 Y98.527 E.02776
;WIDTH:0.419999
G1 X86.794 Y98.137 E.02512
G1 X86.19 Y97.61 E.02513
G1 X85.709 Y96.968 E.02515
G1 X85.372 Y96.241 E.02512
;WIDTH:0.453027
G1 X85.177 Y95.463 E.02735
;WIDTH:0.461728
G1 X85.16 Y94.668 E.02769
G1 X85.332 Y93.905 E.02724
;WIDTH:0.419999
G1 X85.627 Y93.186 E.02437
G1 X86.062 Y92.545 E.02429
G1 X86.698 Y91.933 E.02767
G1 X87.386 Y91.521 E.02514
G1 X87.89 Y91.345 E.01674
G1 X88.375 Y91.225 E.01567
G1 X88.913 Y91.167 E.01697
G1 X89.73 Y91.236 E.02571
G1 X90.506 Y91.473 E.02544
G1 X91.206 Y91.863 E.02512
G1 X91.889 Y92.478 E.02882
G1 X92.291 Y93.032 E.02146
G1 X92.615 Y93.728 E.02407
G1 X92.782 Y94.505 E.02492
;WIDTH:0.385193
G1 X92.791 Y95.342 E.02382
;WIDTH:0.362299
G1 X92.791 Y95.345 E.00008
;WIDTH:0.391146
G1 X92.728 Y95.737 E.0115
;WIDTH:0.419999
G1 X92.665 Y96.129 E.01245
G1 X92.35 Y96.866 E.02513
G1 X91.883 Y97.517 E.02512
M204 P1000
G1 X91.493 Y97.388 F9000
M204 P600
;TYPE:External perimeter
G1 F1200
G1 X91.049 Y97.787 E.01872
G1 X90.425 Y98.152 E.02267
G1 X89.739 Y98.38 E.02267
G1 X89.02 Y98.459 E.02268
G1 X88.3 Y98.388 E.02268
G1 X87.611 Y98.168 E.02268
G1 X86.983 Y97.81 E.02267
G1 X86.442 Y97.329 E.0227
G1 X86.014 Y96.747 E.02265
G1 X85.716 Y96.088 E.02268
G1 X85.562 Y95.381 E.02269
G1 X85.558 Y94.668 E.02236
G1 X85.7 Y93.985 E.02187
G1 X85.971 Y93.34 E.02194
G1 X86.367 Y92.767 E.02184
G1 X86.951 Y92.213 E.02524
G1 X87.575 Y91.848 E.02267
G1 X88.262 Y91.62 E.0227
G1 X88.844 Y91.554 E.01837
G1 X89.693 Y91.612 E.02668
G1 X90.389 Y91.832 E.02289
G1 X91.017 Y92.19 E.02267
G1 X91.584 Y92.7 E.02391
G1 X91.986 Y93.253 E.02144
G1 X92.27 Y93.881 E.02161
G1 X92.43 Y94.58 E.02248
G1 X92.442 Y95.343 E.02393
G1 X92.296 Y96.05 E.02264
G1 X92.006 Y96.713 E.02269
G1 X91.537 Y97.348 E.02475
M204 P1000
G1 X91.614 Y97.769 F9000
G1 E-2.24 F4200
;WIPE_START
G1 F7200
G1 X91.049 Y97.787 E-.36376
G1 X90.425 Y98.152 E-.40061
G1 X90.09 Y98.263 E-.19563
;WIPE_END
G1 Z.4 F720
G1 X69.881 Y96.84 F9000
G1 Z.2 F720
G1 E3.2 F2400
M204 P600
;TYPE:Perimeter
G1 F1200
G1 X69.801 Y96.716 E.00463
G1 X69.562 Y96.179 E.01843
G1 X69.392 Y95.439 E.02381
G1 X69.379 Y94.689 E.02352
G1 X69.522 Y93.967 E.02308
G1 X69.8 Y93.286 E.02306
G1 X70.211 Y92.679 E.02298
G1 X70.619 Y92.272 E.01807
G1 X70.912 Y92.025 E.01202
G1 X71.472 Y91.701 E.02029
G1 X72.187 Y91.457 E.02369
G1 X73.03 Y91.367 E.02658
G1 X73.694 Y91.432 E.02092
G1 X74.424 Y91.656 E.02394
G1 X75.088 Y92.025 E.02382
G1 X75.74 Y92.612 E.02751
G1 X76.118 Y93.132 E.02016
G1 X76.413 Y93.763 E.02184
;WIDTH:0.455993
G1 X76.526 Y94.151 E.01388
;WIDTH:0.491987
G1 X76.64 Y94.538 E.01506
;WIDTH:0.526584
G1 X76.666 Y94.608 E.003
;WIDTH:0.56118
G1 X76.691 Y94.679 E.00324
G1 X76.691 Y95.329 E.02801
G1 X76.619 Y95.575 E.01105
;WIDTH:0.51414
G1 X76.547 Y95.821 E.01004
;WIDTH:0.46707
G1 X76.475 Y96.067 E.00904
;WIDTH:0.419999
G1 X76.177 Y96.766 E.02383
G1 X75.74 Y97.388 E.02383
G1 X75.184 Y97.905 E.0238
G1 X74.532 Y98.296 E.02384
;WIDTH:0.467521
G1 X74.18 Y98.442 E.01345
;WIDTH:0.515043
G1 X73.828 Y98.588 E.01496
;WIDTH:0.555227
G1 X73.705 Y98.634 E.00559
G1 X73.064 Y98.685 E.02739
G1 X72.295 Y98.634 E.03283
G1 X72.055 Y98.538 E.01101
;WIDTH:0.510153
G1 X71.816 Y98.441 E.01002
;WIDTH:0.465076
G1 X71.576 Y98.344 E.00909
;WIDTH:0.419999
G1 X70.912 Y97.975 E.02382
G1 X70.339 Y97.476 E.02382
G1 X69.913 Y96.891 E.02269
M204 P1000
G1 X70.129 Y96.517 F9000
M204 P600
;TYPE:External perimeter
G1 F1200
G1 X69.906 Y96.026 E.01691
G1 X69.761 Y95.36 E.02137
G1 X69.757 Y94.689 E.02104
G1 X69.89 Y94.048 E.02053
G1 X70.144 Y93.44 E.02066
G1 X70.516 Y92.901 E.02053
G1 X71.068 Y92.375 E.02391
G1 X71.656 Y92.031 E.02136
G1 X72.303 Y91.816 E.02138
G1 X72.954 Y91.742 E.02054
G1 X73.545 Y91.797 E.01861
G1 X74.308 Y92.014 E.02487
G1 X74.9 Y92.352 E.02137
G1 X75.318 Y92.723 E.01752
G1 X75.776 Y93.303 E.02317
G1 X76.068 Y93.917 E.02132
G1 X76.236 Y94.624 E.02278
G1 X76.243 Y95.321 E.02186
G1 X76.106 Y95.988 E.02135
G1 X75.832 Y96.613 E.0214
G1 X75.435 Y97.166 E.02134
G1 X74.932 Y97.625 E.02135
G1 X74.344 Y97.969 E.02136
G1 X73.697 Y98.184 E.02138
G1 X73.02 Y98.259 E.02136
G1 X72.342 Y98.192 E.02136
G1 X71.692 Y97.986 E.02138
G1 X71.1 Y97.648 E.02137
G1 X70.591 Y97.196 E.02134
G1 X70.187 Y96.647 E.02137
G1 X70.153 Y96.572 E.00258
M204 P1000
G1 X69.729 Y96.501 F9000
G1 E-2.24 F4200
;WIPE_START
G1 F7200
G1 X69.906 Y96.026 E-.3321
G1 X69.761 Y95.36 E-.37772
G1 X69.758 Y94.909 E-.25018
;WIPE_END
G1 Z.4 F720
G1 X61.942 Y96.76 F9000
G1 Z.2 F720
G1 E3.2 F2400
M204 P600
;TYPE:Perimeter
G1 F1200
G1 X61.657 Y96.148 E.02117
;WIDTH:0.457673
G1 X61.597 Y95.972 E.00641
;WIDTH:0.495346
G1 X61.537 Y95.796 E.007
;WIDTH:0.53302
G1 X61.477 Y95.62 E.00758
;WIDTH:0.570693
G1 X61.418 Y95.444 E.00815
;WIDTH:0.577369
G1 X61.4 Y94.689 E.03356
;WIDTH:0.588032
G1 X61.41 Y94.55 E.00632
G1 X61.465 Y94.397 E.00737
;WIDTH:0.546024
G1 X61.52 Y94.244 E.0068
;WIDTH:0.504016
G1 X61.575 Y94.091 E.00623
;WIDTH:0.462008
G1 X61.63 Y93.937 E.0057
;WIDTH:0.419999
G1 X61.91 Y93.283 E.02231
G1 X62.334 Y92.679 E.02314
G1 X62.875 Y92.175 E.02318
G1 X63.407 Y91.854 E.01948
G1 X63.616 Y91.747 E.00736
G1 X64.207 Y91.555 E.01948
G1 X64.915 Y91.467 E.02237
G1 X65.674 Y91.53 E.02388
G1 X65.793 Y91.555 E.00381
G1 X66.384 Y91.747 E.01948
G1 X67.03 Y92.106 E.02317
G1 X67.513 Y92.524 E.02003
G1 X67.666 Y92.679 E.00683
G1 X68.031 Y93.182 E.01949
G1 X68.318 Y93.794 E.02119
G1 X68.505 Y94.555 E.02457
G1 X68.521 Y95.311 E.02371
G1 X68.38 Y96.036 E.02316
G1 X68.09 Y96.716 E.02318
G1 X67.666 Y97.321 E.02316
G1 X67.125 Y97.825 E.02318
G1 X66.492 Y98.205 E.02315
G1 X65.793 Y98.445 E.02317
G1 X65.059 Y98.534 E.02318
G1 X64.323 Y98.469 E.02317
G1 X63.616 Y98.253 E.02318
G1 X62.97 Y97.894 E.02317
G1 X62.468 Y97.458 E.02085
G1 X61.967 Y96.815 E.02556
M204 P1000
G1 X62.358 Y96.706 F9000
M204 P600
;TYPE:External perimeter
G1 F1200
G1 X62.274 Y96.597 E.00431
G1 X62.001 Y95.995 E.02073
G1 X61.86 Y95.35 E.0207
G1 X61.856 Y94.689 E.02073
G1 X61.998 Y94.018 E.0215
G1 X62.254 Y93.437 E.01991
G1 X62.639 Y92.901 E.02069
G1 X63.127 Y92.456 E.02071
G1 X63.596 Y92.18 E.01706
G1 X64.199 Y91.954 E.02019
G1 X64.955 Y91.842 E.02396
G1 X65.636 Y91.906 E.02145
G1 X66.267 Y92.106 E.02075
G1 X66.841 Y92.433 E.02071
G1 X67.26 Y92.804 E.01755
G1 X67.69 Y93.353 E.02186
G1 X67.973 Y93.948 E.02066
G1 X68.136 Y94.634 E.02211
G1 X68.144 Y95.311 E.02123
G1 X68.011 Y95.958 E.02071
G1 X67.746 Y96.563 E.02071
G1 X67.361 Y97.099 E.02069
G1 X66.873 Y97.544 E.02071
G1 X66.303 Y97.878 E.02071
G1 X65.676 Y98.086 E.02071
G1 X65.02 Y98.159 E.0207
G1 X64.362 Y98.094 E.02073
G1 X63.733 Y97.894 E.02069
G1 X63.159 Y97.567 E.02071
G1 X62.72 Y97.178 E.01839
G1 X62.395 Y96.754 E.01675
M204 P1000
G1 X62.222 Y96.729 F9000
G1 E-2.24 F4200
;WIPE_START
G1 F7200
G1 X62.274 Y96.597 E-.10985
G1 X62.001 Y95.995 E-.36631
G1 X61.86 Y95.35 E-.36588
G1 X61.859 Y95.137 E-.11796
;WIPE_END
G1 Z.4 F720
G1 X64.146 Y80.869 F9000
G1 Z.2 F720
G1 E3.2 F2400
M204 P600
;TYPE:Perimeter
;WIDTH:0.583334
G1 F1200
G1 X64.063 Y80.909 E.00414
;WIDTH:0.545625
G1 X63.797 Y81.021 E.01206
;WIDTH:0.50375
G1 X63.531 Y81.134 E.01107
;WIDTH:0.461875
G1 X63.264 Y81.247 E.0101
;WIDTH:0.419999
G1 X62.522 Y81.69 E.0271
G1 X61.888 Y82.278 E.02711
G1 X61.39 Y82.984 E.02709
G1 X61.05 Y83.779 E.02711
;WIDTH:0.456217
G1 X60.98 Y84.018 E.00856
;WIDTH:0.492435
G1 X60.911 Y84.258 E.00933
;WIDTH:0.528652
G1 X60.841 Y84.498 E.0101
G1 X60.823 Y84.249 E.01008
;WIDTH:0.492435
G1 X60.805 Y84 E.00933
;WIDTH:0.456217
G1 X60.787 Y83.751 E.00858
;WIDTH:0.419999
G1 X60.787 Y80.787 E.09293
G1 X63.307 Y80.787 E.07901
;WIDTH:0.460833
G1 X63.517 Y80.807 E.00733
;WIDTH:0.501667
G1 X63.726 Y80.828 E.00801
;WIDTH:0.542501
G1 X63.936 Y80.848 E.00876
;WIDTH:0.583334
G1 X64.086 Y80.863 E.00677
M204 P1000
G1 E-2.24 F4200
;WIPE_START
G1 F7200
G1 X64.063 Y80.909 E-.0285
G1 X63.797 Y81.021 E-.15994
G1 X63.531 Y81.134 E-.16016
G1 X63.264 Y81.247 E-.16067
G1 X62.566 Y81.664 E-.45073
;WIPE_END
G1 Z.4 F720
G1 X113.06 Y80.789 F9000
G1 Z.2 F720
G1 E3.2 F2400
M204 P600
;WIDTH:0.419999
G1 F1200
G1 X112.228 Y81.286 E.03039
G1 X111.517 Y81.943 E.03035
G1 X110.934 Y82.786 E.03214
G1 X110.572 Y83.658 E.0296
G1 X110.385 Y84.585 E.02965
G1 X110.397 Y85.543 E.03004
G1 X110.611 Y86.488 E.03038
G1 X111.016 Y87.368 E.03037
G1 X111.468 Y87.99 E.02411
G1 X111.764 Y88.296 E.01335
G1 X112.324 Y88.784 E.02329
G1 X113.169 Y89.258 E.03038
G1 X113.979 Y89.521 E.0267
G1 X115.059 Y89.634 E.03405
G1 X116.021 Y89.521 E.03037
G1 X116.939 Y89.21 E.03039
G1 X117.772 Y88.714 E.0304
G1 X118.483 Y88.057 E.03035
G1 X118.984 Y87.368 E.02671
G1 X119.214 Y86.882 E.01686
G1 X119.213 Y99.213 E.38663
G1 X106.667 Y99.213 E.39337
G1 X106.254 Y99.227 E.01296
;WIDTH:0.3912
G1 X105.842 Y99.242 E.01194
;WIDTH:0.408247
G1 X105.774 Y99.219 E.00218
;WIDTH:0.454094
G1 X105.706 Y99.196 E.00245
;WIDTH:0.499941
G1 X105.638 Y99.173 E.00273
;WIDTH:0.545788
G1 X105.57 Y99.15 E.003
;WIDTH:0.591635
G1 X105.502 Y99.127 E.00328
;WIDTH:0.637482
G1 X105.434 Y99.104 E.00355
G1 X105.51 Y99.072 E.00408
;WIDTH:0.59402
G1 X105.586 Y99.041 E.00376
;WIDTH:0.550558
G1 X105.662 Y99.009 E.00348
;WIDTH:0.507096
G1 X105.738 Y98.977 E.00318
;WIDTH:0.463634
G1 X105.814 Y98.945 E.00288
;WIDTH:0.420171
G1 X105.89 Y98.913 E.00259
;WIDTH:0.419999
G1 X106.695 Y98.661 E.02645
G1 X107.419 Y98.229 E.02643
G1 X108.038 Y97.656 E.02645
G1 X108.523 Y96.966 E.02644
G1 X108.855 Y96.19 E.02646
G1 X109.018 Y95.363 E.02643
G1 X109.006 Y94.52 E.02643
G1 X108.819 Y93.697 E.02646
G1 X108.464 Y92.932 E.02644
G1 X108.1 Y92.431 E.01942
G1 X107.713 Y92.036 E.01734
G1 X107.323 Y91.701 E.01612
G1 X106.587 Y91.29 E.02643
G1 X105.778 Y91.041 E.02654
G1 X104.912 Y90.967 E.02725
G1 X104.218 Y91.042 E.02189
G1 X103.305 Y91.339 E.0301
G1 X102.677 Y91.701 E.02273
G1 X102.382 Y91.95 E.0121
G1 X101.914 Y92.411 E.0206
G1 X101.454 Y93.085 E.02559
G1 X101.142 Y93.842 E.02567
;WIDTH:0.451408
G1 X101.046 Y94.239 E.01387
;WIDTH:0.482816
G1 X100.95 Y94.637 E.01498
G1 X100.924 Y94.512 E.00467
;WIDTH:0.462288
G1 X100.698 Y93.67 E.0304
;WIDTH:0.419999
G1 X100.341 Y92.932 E.0257
G1 X99.884 Y92.324 E.02385
G1 X99.469 Y91.95 E.01752
G1 X99.063 Y91.666 E.01554
G1 X98.546 Y91.382 E.01849
G1 X97.757 Y91.139 E.02589
G1 X96.913 Y91.067 E.02656
G1 X96.124 Y91.164 E.02492
G1 X95.346 Y91.43 E.02578
G1 X94.735 Y91.782 E.02211
G1 X94.571 Y91.914 E.0066
G1 X93.988 Y92.478 E.02543
G1 X93.541 Y93.134 E.02489
G1 X93.233 Y93.872 E.02507
G1 X93.173 Y94.265 E.01246
;WIDTH:0.392137
G1 X93.113 Y94.659 E.01157
;WIDTH:0.377692
G1 X93.114 Y95.466 E.02246
;WIDTH:0.419999
G1 X93.277 Y96.272 E.02578
G1 X93.622 Y97.018 E.02577
G1 X94.116 Y97.676 E.0258
G1 X94.735 Y98.218 E.0258
G1 X95.454 Y98.618 E.0258
G1 X96.24 Y98.855 E.02574
;WIDTH:0.408102
G1 X97.057 Y98.91 E.02486
